;FLAVOR:Marlin
;TIME:5252
;Filament used: 3.57178m
;Layer height: 0.2
;MINX:70.838
;MINY:77.212
;MINZ:0.2
;MAXX:164.153
;MAXY:157.788
;MAXZ:8
;Generated with Cura_SteamEngine 5.0.0
M140 S50
M105
M190 S50
M104 S200
M105
M109 S200
M82 ;absolute extrusion mode
; Ender 3 Custom Start G-code
G92 E0 ; Reset Extruder
G28 ; Home all axes
G1 Z2.0 F3000 ; Move Z Axis up little to prevent scratching of Heat Bed
G1 X0.1 Y20 Z0.3 F5000.0 ; Move to start position
G1 X0.1 Y200.0 Z0.3 F1500.0 E15 ; Draw the first line
G1 X0.4 Y200.0 Z0.3 F5000.0 ; Move to side a little
G1 X0.4 Y20 Z0.3 F1500.0 E30 ; Draw the second line
G92 E0 ; Reset Extruder
G1 Z2.0 F3000 ; Move Z Axis up little to prevent scratching of Heat Bed
G1 X5 Y20 Z0.3 F5000.0 ; Move over to prevent blob squish
G92 E0
G92 E0
G1 F2700 E-5
;LAYER_COUNT:40
;LAYER:0
M107
G0 F6000 X74.929 Y79.999 Z0.2
G0 X70.845 Y89.207
;TYPE:SKIRT
G1 F2700 E0
G1 F1200 X70.857 Y88.559 E0.02156
G1 X70.914 Y87.623 E0.05275
G1 X71.051 Y86.695 E0.08395
G1 X71.266 Y85.783 E0.11511
G1 X71.529 Y84.971 E0.1435
G1 X71.63 Y84.696 E0.15324
G1 X71.991 Y83.83 E0.18445
G1 X72.424 Y82.998 E0.21564
G1 X72.926 Y82.206 E0.24683
G1 X73.494 Y81.46 E0.27802
G1 X74.099 Y80.789 E0.30807
G1 X74.245 Y80.64 E0.31501
G1 X74.929 Y79.999 E0.34618
G1 X75.666 Y79.418 E0.3774
G1 X76.449 Y78.903 E0.40857
G1 X77.225 Y78.479 E0.43798
G1 X77.413 Y78.386 E0.44496
G1 X78.27 Y78.007 E0.47612
G1 X79.157 Y77.702 E0.50732
G1 X80.011 Y77.484 E0.53663
G1 X80.934 Y77.321 E0.56781
G1 X82.206 Y77.226 E0.61023
G1 X83.184 Y77.212 E0.64277
G1 X149.565 Y77.223 E2.85061
G1 X150.241 Y77.232 E2.87309
G1 X151.178 Y77.284 E2.9043
G1 X152.106 Y77.416 E2.93548
G1 X153.02 Y77.627 E2.96668
G1 X154.004 Y77.949 E3.00112
G1 X154.246 Y78.041 E3.00973
G1 X155.108 Y78.411 E3.04093
G1 X155.935 Y78.854 E3.07213
G1 X156.721 Y79.365 E3.10331
G1 X157.461 Y79.941 E3.1345
G1 X158.371 Y80.809 E3.17633
G1 X158.559 Y81.01 E3.18548
G1 X159.17 Y81.722 E3.21669
G1 X159.718 Y82.483 E3.24788
G1 X160.199 Y83.288 E3.27907
G1 X160.61 Y84.131 E3.31026
G1 X160.947 Y85.006 E3.34145
G1 X161.273 Y86.182 E3.38204
G1 X161.368 Y86.618 E3.39688
G1 X161.528 Y87.542 E3.42807
G1 X161.59 Y88.151 E3.44843
G1 X161.649 Y88.947 E3.47498
G1 X161.875 Y91.503 E3.56032
G1 X162.17 Y94.034 E3.64507
G1 X162.529 Y96.495 E3.72779
G1 X162.971 Y99.021 E3.81308
G1 X163.469 Y101.467 E3.89611
G1 X163.868 Y103.217 E3.95581
G1 X164.037 Y104.139 E3.98698
G1 X164.141 Y105.464 E4.03119
G1 X164.153 Y106.217 E4.05624
G1 X164.152 Y139.223 E5.15402
G1 X164.141 Y139.929 E5.1775
G1 X164.086 Y140.866 E5.20872
G1 X163.952 Y141.794 E5.23991
G1 X163.739 Y142.707 E5.27109
G1 X163.362 Y143.827 E5.3104
G1 X163.12 Y144.43 E5.33201
G1 X162.467 Y145.989 E5.38822
G1 X161.162 Y149.432 E5.51069
G1 X160.982 Y149.937 E5.52852
G1 X160.734 Y150.572 E5.55119
G1 X160.625 Y150.827 E5.56042
G1 X160.22 Y151.672 E5.59158
G1 X159.744 Y152.481 E5.6228
G1 X159.201 Y153.246 E5.654
G1 X158.437 Y154.129 E5.69284
G1 X158.285 Y154.287 E5.70013
G1 X157.607 Y154.935 E5.73133
G1 X156.876 Y155.522 E5.76251
G1 X156.097 Y156.045 E5.79372
G1 X155.235 Y156.521 E5.82647
G1 X155.049 Y156.613 E5.83337
G1 X154.191 Y156.992 E5.86457
G1 X153.304 Y157.298 E5.89577
G1 X152.412 Y157.523 E5.92637
G1 X151.488 Y157.683 E5.95756
G1 X150.251 Y157.774 E5.99881
G1 X149.276 Y157.788 E6.03125
G1 X82.895 Y157.777 E8.23909
G1 X82.219 Y157.768 E8.26157
G1 X81.282 Y157.716 E8.29279
G1 X80.354 Y157.584 E8.32396
G1 X79.44 Y157.373 E8.35516
G1 X78.402 Y157.03 E8.39152
G1 X78.156 Y156.935 E8.40029
G1 X77.297 Y156.561 E8.43145
G1 X76.472 Y156.114 E8.46266
G1 X75.688 Y155.598 E8.49388
G1 X74.951 Y155.018 E8.52507
G1 X74.083 Y154.185 E8.56509
G1 X73.897 Y153.986 E8.57415
G1 X73.286 Y153.274 E8.60535
G1 X72.738 Y152.513 E8.63654
G1 X72.257 Y151.708 E8.66773
G1 X71.847 Y150.865 E8.69891
G1 X71.51 Y149.99 E8.7301
G1 X71.227 Y149.001 E8.76431
G1 X71.147 Y148.662 E8.7759
G1 X70.971 Y147.741 E8.80708
G1 X70.874 Y146.809 E8.83825
G1 X70.854 Y146.303 E8.85509
G1 X70.842 Y145.424 E8.88433
G1 X70.84 Y142.322 E8.9875
G1 X70.858 Y141.337 E9.02027
G1 X70.904 Y140.229 E9.05715
G1 X70.976 Y137.601 E9.14459
G1 X70.972 Y135.123 E9.22701
G1 X70.894 Y132.926 E9.30013
G1 X70.838 Y130.866 E9.36867
G1 X70.839 Y113.52 E9.9456
G1 X70.849 Y112.814 E9.96909
G1 X70.865 Y112.367 E9.98396
G1 X70.996 Y109.97 E10.06381
G1 X71.067 Y107.417 E10.14875
G1 X71.066 Y104.915 E10.23197
G1 X70.994 Y102.352 E10.31725
G1 X70.853 Y99.606 E10.4087
G1 X70.839 Y99.039 E10.42757
G1 X70.845 Y89.207 E10.75458
G0 F6000 X71.245 Y89.215
G1 F1200 X71.257 Y88.567 E10.77614
G1 X71.314 Y87.648 E10.80676
G1 X71.45 Y86.737 E10.8374
G1 X71.665 Y85.842 E10.86801
G1 X71.905 Y85.109 E10.89366
G1 X72.006 Y84.834 E10.90341
G1 X72.36 Y83.984 E10.93403
G1 X72.788 Y83.168 E10.96468
G1 X73.284 Y82.393 E10.99528
G1 X73.845 Y81.663 E11.02591
G1 X74.385 Y81.069 E11.05261
G1 X74.531 Y80.92 E11.05954
G1 X75.203 Y80.291 E11.09016
G1 X75.927 Y79.723 E11.12076
G1 X76.698 Y79.22 E11.15138
G1 X77.402 Y78.838 E11.17802
G1 X77.59 Y78.745 E11.185
G1 X78.432 Y78.373 E11.21562
G1 X79.303 Y78.075 E11.24623
G1 X80.097 Y77.875 E11.27347
G1 X81.004 Y77.715 E11.3041
G1 X82.212 Y77.626 E11.34439
G1 X83.184 Y77.612 E11.37672
G1 X149.56 Y77.623 E13.58439
G1 X150.236 Y77.632 E13.60688
G1 X151.155 Y77.684 E13.63749
G1 X152.066 Y77.816 E13.66811
G1 X152.963 Y78.026 E13.69875
G1 X153.862 Y78.323 E13.73024
G1 X154.104 Y78.415 E13.73885
G1 X154.949 Y78.779 E13.76945
G1 X155.76 Y79.215 E13.80008
G1 X156.53 Y79.72 E13.83071
G1 X157.253 Y80.29 E13.86133
G1 X158.078 Y81.082 E13.89937
G1 X158.266 Y81.283 E13.90852
G1 X158.866 Y81.982 E13.93916
G1 X159.402 Y82.731 E13.96979
G1 X159.871 Y83.523 E14.00041
G1 X160.27 Y84.353 E14.03104
G1 X160.595 Y85.214 E14.06165
G1 X160.882 Y86.267 E14.09795
G1 X160.977 Y86.703 E14.11279
G1 X161.134 Y87.611 E14.14344
G1 X161.191 Y88.181 E14.16249
G1 X161.247 Y88.939 E14.18777
G1 X161.481 Y91.583 E14.27605
G1 X161.771 Y94.071 E14.35936
G1 X162.132 Y96.551 E14.44272
G1 X162.578 Y99.099 E14.52875
G1 X163.078 Y101.55 E14.61195
G1 X163.478 Y103.306 E14.67185
G1 X163.643 Y104.211 E14.70245
G1 X163.741 Y105.471 E14.74448
G1 X163.753 Y106.217 E14.7693
G1 X163.752 Y139.217 E15.86688
G1 X163.741 Y139.923 E15.89037
G1 X163.686 Y140.842 E15.92099
G1 X163.553 Y141.753 E15.95161
G1 X163.34 Y142.649 E15.98224
G1 X162.99 Y143.679 E16.01842
G1 X162.751 Y144.276 E16.03981
G1 X162.093 Y145.846 E16.09643
G1 X160.785 Y149.296 E16.21915
G1 X160.605 Y149.803 E16.23704
G1 X160.366 Y150.414 E16.25886
G1 X160.257 Y150.669 E16.26809
G1 X159.859 Y151.499 E16.2987
G1 X159.39 Y152.292 E16.32935
G1 X158.854 Y153.04 E16.35995
G1 X158.149 Y153.852 E16.39572
G1 X157.997 Y154.01 E16.40301
G1 X157.33 Y154.645 E16.43364
G1 X156.611 Y155.22 E16.46426
G1 X155.845 Y155.73 E16.49487
G1 X155.058 Y156.162 E16.52473
G1 X154.872 Y156.254 E16.53163
G1 X154.029 Y156.626 E16.56228
G1 X153.158 Y156.924 E16.5929
G1 X152.327 Y157.132 E16.62139
G1 X151.42 Y157.289 E16.652
G1 X150.245 Y157.374 E16.69119
G1 X149.276 Y157.388 E16.72342
G1 X82.9 Y157.377 E18.93109
G1 X82.224 Y157.368 E18.95358
G1 X81.305 Y157.316 E18.9842
G1 X80.394 Y157.184 E19.01481
G1 X79.497 Y156.974 E19.04545
G1 X78.546 Y156.657 E19.07879
G1 X78.3 Y156.562 E19.08757
G1 X77.457 Y156.194 E19.11816
G1 X76.648 Y155.753 E19.1488
G1 X75.881 Y155.244 E19.17942
G1 X75.161 Y154.671 E19.21003
G1 X74.375 Y153.912 E19.24637
G1 X74.189 Y153.713 E19.25543
G1 X73.59 Y153.014 E19.28604
G1 X73.054 Y152.265 E19.31668
G1 X72.585 Y151.473 E19.34729
G1 X72.187 Y150.643 E19.37791
G1 X71.862 Y149.782 E19.40852
G1 X71.616 Y148.91 E19.43865
G1 X71.536 Y148.571 E19.45024
G1 X71.364 Y147.666 E19.48088
G1 X71.254 Y146.297 E19.52656
G1 X71.242 Y145.424 E19.5556
G1 X71.24 Y142.327 E19.6586
G1 X71.257 Y141.353 E19.691
G1 X71.306 Y140.188 E19.72978
G1 X71.376 Y137.611 E19.81553
G1 X71.372 Y135.107 E19.89881
G1 X71.294 Y132.914 E19.9718
G1 X71.238 Y130.866 E20.03994
G1 X71.239 Y113.526 E20.61667
G1 X71.249 Y112.82 E20.64015
G1 X71.264 Y112.389 E20.6545
G1 X71.397 Y109.967 E20.73517
G1 X71.467 Y107.428 E20.81965
G1 X71.466 Y104.904 E20.9036
G1 X71.393 Y102.321 E20.98955
G1 X71.253 Y99.586 E21.08063
G1 X71.239 Y99.04 E21.0988
G1 X71.245 Y89.215 E21.42558
G0 F6000 X71.645 Y89.222
G1 F1200 X71.657 Y88.574 E21.44714
G1 X71.713 Y87.673 E21.47716
G1 X71.85 Y86.78 E21.50721
G1 X72.064 Y85.903 E21.53724
G1 X72.28 Y85.246 E21.56024
G1 X72.381 Y84.971 E21.56998
G1 X72.73 Y84.138 E21.60002
G1 X73.151 Y83.339 E21.63006
G1 X73.641 Y82.581 E21.66008
G1 X74.196 Y81.868 E21.69013
G1 X74.671 Y81.349 E21.71353
G1 X74.817 Y81.2 E21.72047
G1 X75.477 Y80.584 E21.7505
G1 X76.188 Y80.028 E21.78052
G1 X76.947 Y79.538 E21.81057
G1 X77.579 Y79.196 E21.83447
G1 X77.767 Y79.103 E21.84144
G1 X78.594 Y78.739 E21.8715
G1 X79.449 Y78.45 E21.90151
G1 X80.183 Y78.265 E21.92669
G1 X81.073 Y78.11 E21.95674
G1 X82.219 Y78.026 E21.99496
G1 X83.184 Y78.012 E22.02705
G1 X149.555 Y78.023 E24.23456
G1 X150.231 Y78.032 E24.25705
G1 X151.132 Y78.084 E24.28707
G1 X152.026 Y78.215 E24.31712
G1 X152.904 Y78.425 E24.34714
G1 X153.72 Y78.697 E24.37575
G1 X153.962 Y78.789 E24.38436
G1 X154.791 Y79.147 E24.4144
G1 X155.585 Y79.577 E24.44443
G1 X156.338 Y80.075 E24.47446
G1 X157.044 Y80.638 E24.50449
G1 X157.786 Y81.355 E24.53881
G1 X157.974 Y81.556 E24.54796
G1 X158.561 Y82.243 E24.57802
G1 X159.086 Y82.978 E24.60806
G1 X159.543 Y83.757 E24.6381
G1 X159.929 Y84.573 E24.66812
G1 X160.241 Y85.421 E24.69818
G1 X160.491 Y86.352 E24.73024
G1 X160.586 Y86.788 E24.74508
G1 X160.739 Y87.679 E24.77515
G1 X160.792 Y88.21 E24.7929
G1 X160.851 Y89.004 E24.81938
G1 X161.08 Y91.597 E24.90596
G1 X161.376 Y94.134 E24.99091
G1 X161.737 Y96.611 E25.07417
G1 X162.179 Y99.141 E25.15959
G1 X162.695 Y101.673 E25.24553
G1 X163.088 Y103.395 E25.30428
G1 X163.249 Y104.283 E25.3343
G1 X163.341 Y105.478 E25.37416
G1 X163.353 Y106.217 E25.39874
G1 X163.352 Y139.211 E26.49613
G1 X163.341 Y139.917 E26.51961
G1 X163.287 Y140.818 E26.54963
G1 X163.153 Y141.712 E26.5797
G1 X162.941 Y142.589 E26.60971
G1 X162.619 Y143.531 E26.64282
G1 X162.382 Y144.121 E26.66397
G1 X161.724 Y145.693 E26.72065
G1 X160.409 Y149.161 E26.84401
G1 X160.228 Y149.669 E26.86195
G1 X159.998 Y150.257 E26.88295
G1 X159.889 Y150.512 E26.89217
G1 X159.498 Y151.326 E26.9222
G1 X159.036 Y152.102 E26.95224
G1 X158.507 Y152.834 E26.98228
G1 X157.861 Y153.575 E27.01498
G1 X157.709 Y153.733 E27.02227
G1 X157.054 Y154.355 E27.05231
G1 X156.348 Y154.917 E27.08233
G1 X155.594 Y155.415 E27.11238
G1 X154.88 Y155.804 E27.13942
G1 X154.694 Y155.896 E27.14633
G1 X153.868 Y156.26 E27.17635
G1 X153.012 Y156.55 E27.20641
G1 X152.242 Y156.741 E27.23279
G1 X151.352 Y156.894 E27.26283
G1 X150.238 Y156.974 E27.29998
G1 X149.276 Y156.988 E27.33198
G1 X82.905 Y156.977 E29.53949
G1 X82.229 Y156.968 E29.56197
G1 X81.328 Y156.916 E29.59199
G1 X80.434 Y156.785 E29.62204
G1 X79.556 Y156.575 E29.65207
G1 X78.69 Y156.284 E29.68245
G1 X78.444 Y156.189 E29.69122
G1 X77.617 Y155.827 E29.72125
G1 X76.825 Y155.393 E29.75129
G1 X76.075 Y154.89 E29.78132
G1 X75.372 Y154.323 E29.81136
G1 X74.667 Y153.639 E29.84403
G1 X74.481 Y153.44 E29.85309
G1 X73.894 Y152.754 E29.88312
G1 X73.371 Y152.018 E29.91315
G1 X72.914 Y151.239 E29.94319
G1 X72.528 Y150.422 E29.97325
G1 X72.215 Y149.575 E30.00328
G1 X72.006 Y148.818 E30.0294
G1 X71.926 Y148.479 E30.04098
G1 X71.757 Y147.591 E30.07105
G1 X71.654 Y146.291 E30.11442
G1 X71.642 Y145.423 E30.14329
G1 X71.64 Y142.333 E30.24607
G1 X71.657 Y141.37 E30.2781
G1 X71.705 Y140.216 E30.31652
G1 X71.776 Y137.621 E30.40286
G1 X71.772 Y135.092 E30.48698
G1 X71.693 Y132.902 E30.55986
G1 X71.638 Y130.866 E30.62761
G1 X71.639 Y113.532 E31.20414
G1 X71.649 Y112.826 E31.22762
G1 X71.663 Y112.411 E31.24143
G1 X71.797 Y109.963 E31.32297
G1 X71.867 Y107.439 E31.40695
G1 X71.866 Y104.893 E31.49163
G1 X71.794 Y102.332 E31.57685
G1 X71.652 Y99.565 E31.669
G1 X71.639 Y99.04 E31.68647
G1 X71.645 Y89.222 E32.01301
G1 F2700 E27.01301
;MESH:arduino_uno_top.stl
G0 F6000 X86.751 Y95.059
G0 X87.409 Y96.148
G0 X87.864 Y96.619
G0 X88.428 Y96.947
G0 X88.942 Y97.075
G0 X89.786 Y97.129
G1 F2700 E32.01301
G0 F6000 X89.687 Y96.731
;TYPE:WALL-OUTER
G1 F1200 X89.633 Y96.74 E32.01484
G1 X89.123 Y96.758 E32.03181
G1 X89.074 Y96.753 E32.03345
G1 X88.588 Y96.631 E32.05011
G1 X88.537 Y96.61 E32.05195
G1 X88.103 Y96.361 E32.06859
G1 X87.88 Y96.168 E32.0784
G1 X87.7 Y95.953 E32.08772
G1 X87.678 Y95.92 E32.08904
G1 X87.442 Y95.477 E32.10574
G1 X87.319 Y94.937 E32.12416
G1 X87.315 Y94.642 E32.13397
G1 X87.351 Y94.364 E32.1433
G1 X87.53 Y93.856 E32.16121
G1 X87.685 Y93.602 E32.17111
G1 X87.859 Y93.388 E32.18028
G1 X87.89 Y93.358 E32.18171
G1 X88.284 Y93.05 E32.19835
G1 X88.332 Y93.022 E32.2002
G1 X88.796 Y92.834 E32.21685
G1 X88.851 Y92.82 E32.21874
G1 X89.372 Y92.768 E32.23615
G1 X89.646 Y92.795 E32.24531
G1 X90.16 Y92.957 E32.26323
G1 X90.415 Y93.101 E32.27297
G1 X90.448 Y93.125 E32.27433
G1 X90.821 Y93.46 E32.291
G1 X90.998 Y93.696 E32.30082
G1 X91.223 Y94.188 E32.31881
G1 X91.239 Y94.242 E32.32068
G1 X91.309 Y94.738 E32.33734
G1 X91.293 Y95.03 E32.34707
G1 X91.152 Y95.54 E32.36467
G1 X91.014 Y95.813 E32.37484
G1 X90.99 Y95.849 E32.37628
G1 X90.668 Y96.233 E32.39295
G1 X90.441 Y96.416 E32.40265
G1 X90.199 Y96.559 E32.412
G1 X89.687 Y96.731 E32.42996
G0 F6000 X89.811 Y97.111
;TYPE:WALL-INNER
G1 F1200 X89.647 Y97.14 E32.4355
G1 X89.123 Y97.158 E32.45294
G1 X88.976 Y97.141 E32.45786
G1 X88.49 Y97.019 E32.47453
G1 X88.338 Y96.957 E32.47999
G1 X87.904 Y96.708 E32.49663
G1 X87.614 Y96.466 E32.50919
G1 X87.391 Y96.207 E32.52056
G1 X87.325 Y96.108 E32.52452
G1 X87.089 Y95.665 E32.54121
G1 X86.928 Y95.021 E32.56329
G1 X86.915 Y94.642 E32.5759
G1 X86.955 Y94.308 E32.58709
G1 X87.154 Y93.72 E32.60774
G1 X87.347 Y93.388 E32.62051
G1 X87.55 Y93.134 E32.63133
G1 X87.644 Y93.043 E32.63568
G1 X88.038 Y92.735 E32.65231
G1 X88.182 Y92.651 E32.65786
G1 X88.646 Y92.463 E32.67451
G1 X88.809 Y92.422 E32.6801
G1 X89.309 Y92.371 E32.69681
G1 X89.687 Y92.397 E32.70942
G1 X90.284 Y92.577 E32.73015
G1 X90.617 Y92.755 E32.74271
G1 X90.716 Y92.827 E32.74678
G1 X91.088 Y93.162 E32.76343
G1 X91.322 Y93.461 E32.77606
G1 X91.588 Y94.024 E32.79677
G1 X91.635 Y94.186 E32.80238
G1 X91.705 Y94.682 E32.81904
G1 X91.692 Y95.057 E32.83152
G1 X91.537 Y95.65 E32.85191
G1 X91.369 Y95.998 E32.86476
G1 X91.296 Y96.106 E32.8691
G1 X90.974 Y96.49 E32.88577
G1 X90.687 Y96.731 E32.89823
G1 X90.401 Y96.905 E32.90937
G1 X89.811 Y97.111 E32.93015
G1 F2700 E27.93015
G0 F6000 X89.813 Y97.122
G0 X90.994 Y96.72
G0 X95.86 Y96.72
G0 X96.102 Y101.778
G0 X105.86 Y101.85
G1 F2700 E32.93015
G0 F6000 X105.86 Y101.441
;TYPE:WALL-OUTER
G1 F1200 X103.695 Y101.44 E33.00216
G1 X96.64 Y101.44 E33.23681
G1 X96.479 Y101.36 E33.24279
G1 X96.44 Y101.24 E33.24699
G1 X96.441 Y94.622 E33.4671
G1 X96.502 Y94.496 E33.47176
G1 X96.64 Y94.441 E33.4767
G1 X99.436 Y94.44 E33.56969
G1 X99.436 Y91.25 E33.67579
G1 X99.475 Y91.129 E33.68002
G1 X99.636 Y91.05 E33.68599
G1 X148.579 Y91.051 E35.31384
G1 X148.734 Y91.122 E35.31951
G1 X148.78 Y91.251 E35.32406
G1 X148.779 Y95.489 E35.46502
G1 X148.74 Y95.61 E35.46925
G1 X148.657 Y95.674 E35.47273
G1 X148.579 Y95.69 E35.47538
G1 X106.06 Y95.69 E36.88957
G1 X106.06 Y101.255 E37.07466
G1 X105.985 Y101.397 E37.08
G1 X105.86 Y101.441 E37.08441
G0 F6000 X105.74 Y101.841
;TYPE:WALL-INNER
G1 F1200 X103.695 Y101.84 E37.15243
G1 X96.64 Y101.84 E37.38708
G1 X96.408 Y101.794 E37.39495
G1 X96.159 Y101.6 E37.40544
G1 X96.048 Y101.343 E37.41475
G1 X96.04 Y101.24 E37.41819
G1 X96.041 Y94.641 E37.63767
G1 X96.093 Y94.396 E37.646
G1 X96.226 Y94.207 E37.65369
G1 X96.457 Y94.069 E37.66264
G1 X96.64 Y94.041 E37.6688
G1 X99.036 Y94.04 E37.74849
G1 X99.036 Y91.25 E37.84129
G1 X99.06 Y91.081 E37.84696
G1 X99.155 Y90.889 E37.85409
G1 X99.353 Y90.72 E37.86275
G1 X99.636 Y90.65 E37.87244
G1 X148.579 Y90.651 E39.50029
G1 X148.766 Y90.68 E39.50659
G1 X149.042 Y90.866 E39.51766
G1 X149.18 Y91.251 E39.53126
G1 X149.179 Y95.489 E39.67222
G1 X149.172 Y95.593 E39.67568
G1 X149.062 Y95.85 E39.68498
G1 X148.811 Y96.044 E39.69553
G1 X148.579 Y96.09 E39.7034
