;FLAVOR:Marlin
;TIME:6429
;Filament used: 2.48245m
;Layer height: 0.12
;MINX:70.974
;MINY:77.352
;MINZ:0.12
;MAXX:164.018
;MAXY:157.648
;MAXZ:8.04
;Generated with Cura_SteamEngine 5.0.0
M140 S60
M105
M190 S60
M104 S200
M105
M109 S200
M82 ;absolute extrusion mode
; Ender 3 Custom Start G-code
G92 E0 ; Reset Extruder
G28 ; Home all axes
G1 Z2.0 F3000 ; Move Z Axis up little to prevent scratching of Heat Bed
G1 X0.1 Y20 Z0.3 F5000.0 ; Move to start position
G1 X0.1 Y200.0 Z0.3 F1500.0 E15 ; Draw the first line
G1 X0.4 Y200.0 Z0.3 F5000.0 ; Move to side a little
G1 X0.4 Y20 Z0.3 F1500.0 E30 ; Draw the second line
G92 E0 ; Reset Extruder
G1 Z2.0 F3000 ; Move Z Axis up little to prevent scratching of Heat Bed
G1 X5 Y20 Z0.3 F5000.0 ; Move over to prevent blob squish
G92 E0
G92 E0
G1 F1200 E-5
;LAYER_COUNT:67
;LAYER:0
M107
G0 F6000 X75.072 Y80.07 Z0.12
G0 X70.986 Y88.826
;TYPE:SKIRT
G1 F1200 E0
G1 X71.027 Y87.889 E0.01872
G1 X71.148 Y86.959 E0.03743
G1 X71.347 Y86.043 E0.05614
G1 X71.559 Y85.335 E0.07089
G1 X71.646 Y85.076 E0.07634
G1 X71.982 Y84.201 E0.09504
G1 X72.391 Y83.357 E0.11376
G1 X72.871 Y82.551 E0.13248
G1 X73.418 Y81.79 E0.15118
G1 X74.241 Y80.855 E0.17604
G1 X74.385 Y80.709 E0.18013
G1 X75.072 Y80.07 E0.19886
G1 X75.81 Y79.491 E0.21758
G1 X76.595 Y78.978 E0.23629
G1 X77.421 Y78.534 E0.25501
G1 X78.376 Y78.126 E0.27573
G1 X78.537 Y78.066 E0.27916
G1 X79.429 Y77.776 E0.29788
G1 X80.342 Y77.563 E0.31659
G1 X81.27 Y77.429 E0.3353
G1 X82.161 Y77.375 E0.35311
G1 X83.444 Y77.352 E0.37872
G1 X150.002 Y77.357 E1.70695
G1 X150.939 Y77.397 E1.72567
G1 X151.869 Y77.517 E1.74438
G1 X152.786 Y77.715 E1.76311
G1 X153.579 Y77.955 E1.77964
G1 X153.829 Y78.041 E1.78492
G1 X154.702 Y78.384 E1.80363
G1 X155.543 Y78.8 E1.82236
G1 X156.345 Y79.285 E1.84106
G1 X157.103 Y79.838 E1.85979
G1 X157.975 Y80.611 E1.88304
G1 X158.121 Y80.755 E1.88713
G1 X158.76 Y81.442 E1.90586
G1 X159.339 Y82.18 E1.92458
G1 X159.852 Y82.965 E1.94329
G1 X160.296 Y83.791 E1.962
G1 X160.694 Y84.718 E1.98214
G1 X160.759 Y84.891 E1.98582
G1 X161.051 Y85.782 E2.00454
G1 X161.266 Y86.695 E2.02325
G1 X161.426 Y87.869 E2.0469
G1 X161.526 Y89.116 E2.07186
G1 X161.565 Y89.69 E2.08334
G1 X161.806 Y92.212 E2.1339
G1 X162.119 Y94.727 E2.18448
G1 X162.495 Y97.184 E2.23408
G1 X162.944 Y99.642 E2.28395
G1 X163.757 Y103.382 E2.36033
G1 X163.917 Y104.306 E2.37904
G1 X164.006 Y105.52 E2.40333
G1 X164.018 Y106.273 E2.41836
G1 X164.017 Y139.167 E3.0748
G1 X164.006 Y139.873 E3.08889
G1 X163.951 Y140.81 E3.10762
G1 X163.817 Y141.738 E3.12633
G1 X163.604 Y142.651 E3.14504
G1 X163.217 Y143.795 E3.16914
G1 X162.979 Y144.386 E3.18185
G1 X162.302 Y146.007 E3.21691
G1 X161.381 Y148.397 E3.26802
G1 X160.828 Y149.94 E3.30073
G1 X160.512 Y150.727 E3.31766
G1 X160.426 Y150.919 E3.32186
G1 X160.006 Y151.757 E3.34056
G1 X159.517 Y152.557 E3.35927
G1 X158.961 Y153.313 E3.378
G1 X158.192 Y154.173 E3.40102
G1 X158.048 Y154.318 E3.4051
G1 X157.359 Y154.955 E3.42383
G1 X156.619 Y155.531 E3.44254
G1 X155.832 Y156.041 E3.46126
G1 X155.005 Y156.483 E3.47997
G1 X154.084 Y156.874 E3.49994
G1 X153.923 Y156.934 E3.50336
G1 X153.031 Y157.224 E3.52208
G1 X152.118 Y157.437 E3.54079
G1 X151.19 Y157.571 E3.5595
G1 X150.299 Y157.625 E3.57732
G1 X149.016 Y157.648 E3.60292
G1 X82.467 Y157.644 E4.93098
G1 X81.53 Y157.604 E4.9497
G1 X80.6 Y157.484 E4.96841
G1 X79.684 Y157.286 E4.98711
G1 X78.977 Y157.075 E5.00184
G1 X78.717 Y156.988 E5.00731
G1 X77.842 Y156.653 E5.02601
G1 X76.997 Y156.245 E5.04473
G1 X76.191 Y155.766 E5.06344
G1 X75.429 Y155.22 E5.08215
G1 X74.457 Y154.362 E5.10802
G1 X74.312 Y154.218 E5.1121
G1 X73.675 Y153.529 E5.13083
G1 X73.099 Y152.789 E5.14954
G1 X72.589 Y152.002 E5.16825
G1 X72.147 Y151.175 E5.18697
G1 X71.758 Y150.262 E5.20677
G1 X71.696 Y150.096 E5.21031
G1 X71.406 Y149.204 E5.22903
G1 X71.193 Y148.291 E5.24774
G1 X71.058 Y147.363 E5.26645
G1 X71.003 Y146.467 E5.28436
G1 X70.981 Y145.269 E5.30828
G1 X70.977 Y142.386 E5.36581
G1 X70.994 Y141.401 E5.38547
G1 X71.047 Y140.107 E5.41131
G1 X71.114 Y137.543 E5.4625
G1 X71.109 Y135.064 E5.51197
G1 X71.027 Y132.797 E5.55724
G1 X70.974 Y130.826 E5.59659
G1 X70.976 Y113.483 E5.94269
G1 X70.996 Y112.539 E5.96153
G1 X71.012 Y112.149 E5.96932
G1 X71.134 Y110.003 E6.01221
G1 X71.206 Y107.447 E6.06324
G1 X71.206 Y104.958 E6.11291
G1 X71.133 Y102.394 E6.1641
G1 X70.989 Y99.567 E6.22059
G1 X70.975 Y98.994 E6.23203
G1 X70.986 Y88.826 E6.43494
G0 F6000 X71.386 Y88.827
G1 F1200 X71.427 Y87.907 E6.45332
G1 X71.548 Y86.994 E6.4717
G1 X71.747 Y86.095 E6.49007
G1 X71.938 Y85.463 E6.50325
G1 X72.025 Y85.204 E6.5087
G1 X72.356 Y84.345 E6.52707
G1 X72.76 Y83.517 E6.54546
G1 X73.234 Y82.728 E6.56382
G1 X73.775 Y81.983 E6.5822
G1 X74.526 Y81.136 E6.60479
G1 X74.67 Y80.99 E6.60888
G1 X75.345 Y80.363 E6.62727
G1 X76.071 Y79.797 E6.64564
G1 X76.843 Y79.296 E6.664
G1 X77.656 Y78.864 E6.68238
G1 X78.515 Y78.5 E6.70099
G1 X78.676 Y78.44 E6.70442
G1 X79.552 Y78.157 E6.72279
G1 X80.449 Y77.95 E6.74116
G1 X81.361 Y77.822 E6.75954
G1 X82.169 Y77.775 E6.77569
G1 X83.444 Y77.752 E6.80114
G1 X150.002 Y77.757 E8.12938
G1 X150.922 Y77.797 E8.14776
G1 X151.834 Y77.917 E8.16611
G1 X152.733 Y78.115 E8.18448
G1 X153.449 Y78.333 E8.19942
G1 X153.699 Y78.419 E8.2047
G1 X154.556 Y78.756 E8.22307
G1 X155.38 Y79.167 E8.24145
G1 X156.166 Y79.647 E8.25983
G1 X156.907 Y80.193 E8.2782
G1 X157.694 Y80.896 E8.29925
G1 X157.84 Y81.04 E8.30335
G1 X158.467 Y81.715 E8.32173
G1 X159.033 Y82.441 E8.3401
G1 X159.534 Y83.213 E8.35847
G1 X159.966 Y84.026 E8.37684
G1 X160.32 Y84.859 E8.3949
G1 X160.385 Y85.032 E8.39859
G1 X160.671 Y85.907 E8.41696
G1 X160.88 Y86.803 E8.43532
G1 X161.027 Y87.901 E8.45743
G1 X161.127 Y89.143 E8.4823
G1 X161.166 Y89.719 E8.49382
G1 X161.41 Y92.267 E8.5449
G1 X161.721 Y94.766 E8.59515
G1 X162.1 Y97.245 E8.6452
G1 X162.556 Y99.738 E8.69577
G1 X163.366 Y103.467 E8.77193
G1 X163.522 Y104.374 E8.79029
G1 X163.606 Y105.527 E8.81336
G1 X163.618 Y106.273 E8.82825
G1 X163.617 Y139.161 E9.48457
G1 X163.606 Y139.867 E9.49866
G1 X163.551 Y140.786 E9.51703
G1 X163.418 Y141.697 E9.5354
G1 X163.205 Y142.593 E9.55378
G1 X162.846 Y143.646 E9.57598
G1 X162.61 Y144.232 E9.58859
G1 X161.931 Y145.858 E9.62375
G1 X161.011 Y148.245 E9.67481
G1 X160.452 Y149.805 E9.70788
G1 X160.147 Y150.563 E9.72418
G1 X160.061 Y150.755 E9.72838
G1 X159.648 Y151.578 E9.74675
G1 X159.166 Y152.362 E9.76512
G1 X158.618 Y153.102 E9.7835
G1 X157.908 Y153.891 E9.80468
G1 X157.764 Y154.036 E9.80876
G1 X157.088 Y154.661 E9.82713
G1 X156.36 Y155.224 E9.84549
G1 X155.585 Y155.722 E9.86388
G1 X154.771 Y156.151 E9.88224
G1 X153.945 Y156.5 E9.90014
G1 X153.784 Y156.56 E9.90356
G1 X152.908 Y156.843 E9.92194
G1 X152.011 Y157.05 E9.94031
G1 X151.099 Y157.178 E9.95868
G1 X150.291 Y157.225 E9.97484
G1 X149.016 Y157.248 E10.00028
G1 X82.467 Y157.244 E11.32834
G1 X81.548 Y157.204 E11.3467
G1 X80.635 Y157.084 E11.36508
G1 X79.736 Y156.886 E11.38345
G1 X79.104 Y156.696 E11.39662
G1 X78.844 Y156.609 E11.40209
G1 X77.985 Y156.279 E11.42045
G1 X77.157 Y155.876 E11.43883
G1 X76.368 Y155.403 E11.45719
G1 X75.622 Y154.863 E11.47556
G1 X74.739 Y154.078 E11.49914
G1 X74.594 Y153.934 E11.50322
G1 X73.969 Y153.258 E11.52159
G1 X73.406 Y152.53 E11.53996
G1 X72.908 Y151.755 E11.55834
G1 X72.479 Y150.941 E11.5767
G1 X72.133 Y150.122 E11.59445
G1 X72.071 Y149.956 E11.59798
G1 X71.787 Y149.08 E11.61636
G1 X71.579 Y148.183 E11.63474
G1 X71.451 Y147.272 E11.65309
G1 X71.403 Y146.459 E11.66935
G1 X71.381 Y145.268 E11.69312
G1 X71.377 Y142.391 E11.75053
G1 X71.394 Y141.417 E11.76997
G1 X71.446 Y140.132 E11.79564
G1 X71.514 Y137.553 E11.84712
G1 X71.509 Y135.048 E11.89711
G1 X71.426 Y132.785 E11.9423
G1 X71.374 Y130.826 E11.98141
G1 X71.376 Y113.491 E12.32735
G1 X71.411 Y112.172 E12.35368
G1 X71.534 Y110.003 E12.39703
G1 X71.606 Y107.458 E12.44784
G1 X71.606 Y104.947 E12.49795
G1 X71.533 Y102.363 E12.54954
G1 X71.389 Y99.547 E12.60581
G1 X71.375 Y98.995 E12.61683
G1 X71.386 Y88.827 E12.81974
G0 F6000 X71.786 Y88.827
G1 F1200 X71.827 Y87.925 E12.83776
G1 X71.948 Y87.03 E12.85579
G1 X72.147 Y86.149 E12.87381
G1 X72.317 Y85.59 E12.88547
G1 X72.404 Y85.331 E12.89092
G1 X72.729 Y84.489 E12.90893
G1 X73.128 Y83.678 E12.92697
G1 X73.596 Y82.906 E12.94499
G1 X74.131 Y82.178 E12.96302
G1 X74.811 Y81.416 E12.9834
G1 X74.955 Y81.27 E12.98749
G1 X75.617 Y80.656 E13.00551
G1 X76.331 Y80.103 E13.02353
G1 X77.091 Y79.615 E13.04155
G1 X77.891 Y79.196 E13.05958
G1 X78.655 Y78.875 E13.07611
G1 X78.816 Y78.815 E13.07954
G1 X79.675 Y78.538 E13.09755
G1 X80.556 Y78.337 E13.11559
G1 X81.451 Y78.215 E13.13361
G1 X82.177 Y78.175 E13.14812
G1 X83.444 Y78.152 E13.17341
G1 X150.002 Y78.157 E14.50165
G1 X150.904 Y78.197 E14.51967
G1 X151.799 Y78.317 E14.53769
G1 X152.68 Y78.515 E14.55571
G1 X153.319 Y78.712 E14.56905
G1 X153.569 Y78.798 E14.57433
G1 X154.409 Y79.129 E14.59234
G1 X155.217 Y79.533 E14.61037
G1 X155.985 Y80.007 E14.62838
G1 X156.709 Y80.548 E14.64642
G1 X157.414 Y81.181 E14.66533
G1 X157.56 Y81.325 E14.66942
G1 X158.174 Y81.987 E14.68744
G1 X158.727 Y82.701 E14.70546
G1 X159.215 Y83.461 E14.72348
G1 X159.634 Y84.261 E14.74151
G1 X159.945 Y84.999 E14.75749
G1 X160.01 Y85.172 E14.76118
G1 X160.29 Y86.031 E14.77921
G1 X160.493 Y86.911 E14.79723
G1 X160.628 Y87.934 E14.81782
G1 X160.728 Y89.17 E14.84257
G1 X160.769 Y89.783 E14.85483
G1 X161.009 Y92.283 E14.90495
G1 X161.323 Y94.804 E14.95564
G1 X161.711 Y97.345 E15.00694
G1 X162.161 Y99.805 E15.05685
G1 X162.975 Y103.552 E15.13337
G1 X163.128 Y104.442 E15.15139
G1 X163.206 Y105.534 E15.17324
G1 X163.218 Y106.273 E15.18799
G1 X163.217 Y139.155 E15.84418
G1 X163.206 Y139.861 E15.85827
G1 X163.152 Y140.762 E15.87628
G1 X163.018 Y141.656 E15.89432
G1 X162.806 Y142.533 E15.91233
G1 X162.475 Y143.498 E15.93269
G1 X162.241 Y144.077 E15.94515
G1 X161.565 Y145.695 E15.98015
G1 X160.627 Y148.13 E16.03222
G1 X160.075 Y149.67 E16.06487
G1 X159.782 Y150.4 E16.08056
G1 X159.696 Y150.592 E16.08476
G1 X159.291 Y151.399 E16.10278
G1 X158.815 Y152.167 E16.12081
G1 X158.274 Y152.89 E16.13883
G1 X157.624 Y153.609 E16.15818
G1 X157.48 Y153.754 E16.16225
G1 X156.816 Y154.366 E16.18027
G1 X156.101 Y154.917 E16.19829
G1 X155.339 Y155.403 E16.21632
G1 X154.538 Y155.819 E16.23434
G1 X153.805 Y156.125 E16.25019
G1 X153.644 Y156.185 E16.25362
G1 X152.785 Y156.462 E16.27163
G1 X151.904 Y156.663 E16.28966
G1 X151.009 Y156.785 E16.30769
G1 X150.283 Y156.825 E16.3222
G1 X149.016 Y156.848 E16.34749
G1 X82.467 Y156.844 E17.67554
G1 X81.565 Y156.804 E17.69356
G1 X80.67 Y156.684 E17.71158
G1 X79.789 Y156.486 E17.7296
G1 X79.231 Y156.317 E17.74124
G1 X78.971 Y156.23 E17.74671
G1 X78.128 Y155.906 E17.76473
G1 X77.317 Y155.508 E17.78276
G1 X76.545 Y155.04 E17.80077
G1 X75.817 Y154.506 E17.81879
G1 X75.021 Y153.794 E17.8401
G1 X74.876 Y153.65 E17.84418
G1 X74.264 Y152.986 E17.8622
G1 X73.713 Y152.271 E17.88022
G1 X73.227 Y151.509 E17.89825
G1 X72.811 Y150.708 E17.91626
G1 X72.508 Y149.982 E17.93196
G1 X72.446 Y149.816 E17.9355
G1 X72.167 Y148.957 E17.95352
G1 X71.966 Y148.076 E17.97156
G1 X71.844 Y147.181 E17.98958
G1 X71.803 Y146.451 E18.00417
G1 X71.781 Y145.268 E18.02779
G1 X71.777 Y142.397 E18.08508
G1 X71.793 Y141.433 E18.10432
G1 X71.845 Y140.159 E18.12977
G1 X71.914 Y137.526 E18.18233
G1 X71.909 Y135.032 E18.2321
G1 X71.826 Y132.773 E18.27721
G1 X71.774 Y130.826 E18.31608
G1 X71.776 Y113.5 E18.66184
G1 X71.81 Y112.195 E18.68789
G1 X71.934 Y110.003 E18.7317
G1 X72.006 Y107.469 E18.78229
G1 X72.006 Y104.936 E18.83284
G1 X71.934 Y102.375 E18.88397
G1 X71.788 Y99.527 E18.94088
G1 X71.775 Y98.995 E18.9515
G1 X71.786 Y88.827 E19.15441
G1 F1200 E14.15441
;MESH:arduino_uno_top.stl
G0 F6000 X86.701 Y95.006
G0 X87.375 Y96.172
G0 X87.839 Y96.652
G0 X88.302 Y96.921
G0 X89.099 Y97.208
G1 F1200 E19.15441
G0 F6000 X89.112 Y96.799
;TYPE:WALL-OUTER
G1 F1200 X88.827 Y96.751 E19.16018
G1 X88.559 Y96.665 E19.1658
G1 X88.3 Y96.54 E19.17153
G1 X88.066 Y96.386 E19.17712
G1 X87.851 Y96.196 E19.18285
G1 X87.667 Y95.977 E19.18856
G1 X87.514 Y95.736 E19.19426
G1 X87.393 Y95.466 E19.20016
G1 X87.317 Y95.207 E19.20555
G1 X87.276 Y94.926 E19.21121
G1 X87.275 Y94.639 E19.21694
G1 X87.311 Y94.355 E19.22265
G1 X87.388 Y94.082 E19.22831
G1 X87.501 Y93.824 E19.23394
G1 X87.652 Y93.578 E19.2397
G1 X87.83 Y93.36 E19.24531
G1 X88.044 Y93.166 E19.25108
G1 X88.276 Y93.007 E19.25669
G1 X88.534 Y92.88 E19.26243
G1 X88.799 Y92.79 E19.26801
G1 X89.084 Y92.738 E19.27379
G1 X89.373 Y92.728 E19.27956
G1 X89.653 Y92.756 E19.28518
G1 X89.929 Y92.824 E19.29085
G1 X90.19 Y92.926 E19.29644
G1 X90.438 Y93.066 E19.30213
G1 X90.665 Y93.242 E19.30786
G1 X90.862 Y93.444 E19.31349
G1 X91.032 Y93.675 E19.31921
G1 X91.053 Y93.711 E19.32005
G1 X91.262 Y94.175 E19.3302
G1 X91.329 Y94.472 E19.33628
G1 X91.334 Y95.021 E19.34723
G1 X91.326 Y95.076 E19.34834
G1 X91.186 Y95.566 E19.35851
G1 X91.047 Y95.835 E19.36456
G1 X90.879 Y96.069 E19.3703
G1 X90.686 Y96.273 E19.37591
G1 X90.464 Y96.45 E19.38157
G1 X90.217 Y96.596 E19.3873
G1 X89.954 Y96.702 E19.39296
G1 X89.682 Y96.773 E19.39857
G1 X89.394 Y96.805 E19.40435
G1 X89.112 Y96.799 E19.40998
G0 F6000 X89.1 Y97.199
;TYPE:WALL-INNER
G1 F1200 X88.758 Y97.145 E19.41689
G1 X88.434 Y97.045 E19.42366
G1 X88.125 Y96.9 E19.43047
G1 X87.843 Y96.718 E19.43717
G1 X87.584 Y96.494 E19.444
G1 X87.359 Y96.232 E19.45089
G1 X87.175 Y95.948 E19.45764
G1 X87.032 Y95.639 E19.46444
G1 X86.933 Y95.319 E19.47112
G1 X86.88 Y94.981 E19.47795
G1 X86.875 Y94.639 E19.48478
G1 X86.915 Y94.301 E19.49157
G1 X87.004 Y93.971 E19.49839
G1 X87.135 Y93.662 E19.50509
G1 X87.313 Y93.366 E19.51198
G1 X87.522 Y93.105 E19.51865
G1 X87.777 Y92.868 E19.5256
G1 X88.053 Y92.675 E19.53232
G1 X88.359 Y92.52 E19.53917
G1 X88.674 Y92.41 E19.54583
G1 X89.015 Y92.344 E19.55276
G1 X89.354 Y92.328 E19.55953
G1 X89.695 Y92.358 E19.56636
G1 X90.028 Y92.436 E19.57319
G1 X90.338 Y92.554 E19.57981
G1 X90.638 Y92.72 E19.58665
G1 X90.912 Y92.927 E19.5935
G1 X91.15 Y93.166 E19.60023
G1 X91.356 Y93.439 E19.60706
G1 X91.418 Y93.547 E19.60954
G1 X91.627 Y94.011 E19.6197
G1 X91.721 Y94.39 E19.62749
G1 X91.734 Y95.021 E19.64008
G1 X91.711 Y95.186 E19.64341
G1 X91.566 Y95.693 E19.65393
G1 X91.401 Y96.021 E19.66126
G1 X91.202 Y96.305 E19.66818
G1 X90.974 Y96.55 E19.67486
G1 X90.711 Y96.764 E19.68163
G1 X90.418 Y96.942 E19.68847
G1 X90.102 Y97.074 E19.6953
G1 X89.78 Y97.161 E19.70196
G1 X89.436 Y97.203 E19.70887
G1 X89.1 Y97.199 E19.71558
G1 F1200 E14.71558
G0 F6000 X89.099 Y97.208
G0 X89.637 Y97.114
G0 X91.024 Y96.749
G0 X95.8 Y96.749
G0 X96.162 Y101.718
G0 X105.9 Y101.89
G1 F1200 E19.71558
G0 F6000 X105.9 Y101.481
;TYPE:WALL-OUTER
G1 F1200 X96.6 Y101.48 E19.90117
G1 X96.439 Y101.4 E19.90476
G1 X96.4 Y101.28 E19.90728
G1 X96.401 Y94.594 E20.0407
G1 X96.46 Y94.458 E20.04366
G1 X96.6 Y94.401 E20.04668
G1 X99.396 Y94.4 E20.10248
G1 X99.396 Y91.21 E20.16614
G1 X99.436 Y91.089 E20.16868
G1 X99.596 Y91.01 E20.17224
G1 X148.619 Y91.011 E21.15055
G1 X148.77 Y91.078 E21.15384
G1 X148.82 Y91.211 E21.15668
G1 X148.82 Y95.529 E21.24285
G1 X148.74 Y95.689 E21.24642
G1 X148.619 Y95.729 E21.24896
G1 X106.1 Y95.73 E22.09747
G1 X106.101 Y101.28 E22.20823
G1 X106.037 Y101.427 E22.21143
G1 X105.9 Y101.481 E22.21437
G0 F6000 X105.756 Y101.881
;TYPE:WALL-INNER
G1 F1200 X96.6 Y101.88 E22.39709
G1 X96.368 Y101.834 E22.40181
G1 X96.119 Y101.64 E22.40811
G1 X96.008 Y101.384 E22.41367
G1 X96 Y101.28 E22.41576
G1 X96.001 Y94.581 E22.54944
G1 X96.058 Y94.343 E22.55433
G1 X96.18 Y94.172 E22.55852
G1 X96.424 Y94.027 E22.56418
G1 X96.6 Y94.001 E22.56773
G1 X98.996 Y94 E22.61555
G1 X98.996 Y91.21 E22.67122
G1 X99.019 Y91.041 E22.67463
G1 X99.116 Y90.849 E22.67892
G1 X99.314 Y90.679 E22.68413
G1 X99.596 Y90.61 E22.68992
G1 X148.619 Y90.611 E23.66823
G1 X148.785 Y90.634 E23.67157
G1 X149.072 Y90.814 E23.67833
G1 F1034.5 X149.284 Y91.211 E23.68875
G1 F907.4 X149.284 Y95.529 E23.80271
G1 F904 X149.28 Y95.644 E23.80576
G1 F1027.8 X148.981 Y96.009 E23.81675
G1 F1200 X148.619 Y96.129 E23.82437
G1 X106.5 Y96.13 E24.6649
G1 X106.501 Y101.28 E24.76767
G1 X106.452 Y101.517 E24.7725
G1 X106.31 Y101.719 E24.77743
G1 X106.075 Y101.855 E24.78284
