;FLAVOR:Marlin
;TIME:9038
;Filament used: 5.78534m
;Layer height: 0.2
;MINX:70.843
;MINY:77.212
;MINZ:0.2
;MAXX:164.153
;MAXY:157.788
;MAXZ:14.6
;Generated with Cura_SteamEngine 5.0.0
M140 S50
M105
M190 S50
M104 S200
M105
M109 S200
M82 ;absolute extrusion mode
; Ender 3 Custom Start G-code
G92 E0 ; Reset Extruder
G28 ; Home all axes
G1 Z2.0 F3000 ; Move Z Axis up little to prevent scratching of Heat Bed
G1 X0.1 Y20 Z0.3 F5000.0 ; Move to start position
G1 X0.1 Y200.0 Z0.3 F1500.0 E15 ; Draw the first line
G1 X0.4 Y200.0 Z0.3 F5000.0 ; Move to side a little
G1 X0.4 Y20 Z0.3 F1500.0 E30 ; Draw the second line
G92 E0 ; Reset Extruder
G1 Z2.0 F3000 ; Move Z Axis up little to prevent scratching of Heat Bed
G1 X5 Y20 Z0.3 F5000.0 ; Move over to prevent blob squish
G92 E0
G92 E0
G1 F2700 E-5
;LAYER_COUNT:73
;LAYER:0
M107
G0 F6000 X74.855 Y80.063 Z0.2
G0 X70.847 Y89.948
;TYPE:SKIRT
G1 F2700 E0
G1 F1200 X70.856 Y88.686 E0.04198
G1 X70.903 Y87.749 E0.07318
G1 X71.029 Y86.82 E0.10436
G1 X71.234 Y85.904 E0.13558
G1 X71.464 Y85.156 E0.16161
G1 X71.556 Y84.891 E0.17094
G1 X71.902 Y84.019 E0.20214
G1 X72.32 Y83.18 E0.23332
G1 X72.808 Y82.379 E0.26451
G1 X73.362 Y81.623 E0.29569
G1 X74.023 Y80.871 E0.32899
G1 X74.177 Y80.711 E0.33637
G1 X74.855 Y80.063 E0.36757
G1 X75.587 Y79.476 E0.39878
G1 X76.365 Y78.953 E0.42996
G1 X77.225 Y78.479 E0.46262
G1 X77.413 Y78.386 E0.46959
G1 X78.27 Y78.007 E0.50076
G1 X79.157 Y77.702 E0.53196
G1 X80.011 Y77.484 E0.56127
G1 X80.934 Y77.321 E0.59245
G1 X82.206 Y77.226 E0.63487
G1 X83.184 Y77.212 E0.6674
G1 X149.565 Y77.223 E2.87524
G1 X150.241 Y77.232 E2.89773
G1 X151.178 Y77.284 E2.92894
G1 X152.106 Y77.416 E2.96012
G1 X153.02 Y77.627 E2.99132
G1 X154.004 Y77.949 E3.02575
G1 X154.246 Y78.041 E3.03436
G1 X155.108 Y78.411 E3.06556
G1 X155.935 Y78.854 E3.09677
G1 X156.721 Y79.365 E3.12795
G1 X157.461 Y79.941 E3.15914
G1 X158.371 Y80.809 E3.20097
G1 X158.559 Y81.01 E3.21012
G1 X159.17 Y81.722 E3.24133
G1 X159.718 Y82.483 E3.27252
G1 X160.199 Y83.288 E3.30371
G1 X160.782 Y84.551 E3.34997
G1 X160.993 Y85.099 E3.3695
G1 X161.907 Y87.59 E3.45776
G1 X163.336 Y91.113 E3.5842
G1 X163.651 Y91.996 E3.61538
G1 X163.89 Y92.903 E3.64658
G1 X164.051 Y93.827 E3.67778
G1 X164.141 Y95.05 E3.71856
G1 X164.153 Y95.803 E3.74361
G1 X164.152 Y128.795 E4.84093
G1 X164.142 Y129.496 E4.86425
G1 X164.089 Y130.432 E4.89543
G1 X163.903 Y131.625 E4.93559
G1 X163.742 Y132.375 E4.9611
G1 X163.404 Y133.837 E5.01101
G1 X162.907 Y136.314 E5.09504
G1 X162.483 Y138.786 E5.17846
G1 X162.126 Y141.294 E5.26272
G1 X161.846 Y143.747 E5.34483
G1 X161.684 Y145.795 E5.41316
G1 X161.566 Y147.168 E5.459
G1 X161.446 Y148.098 E5.49018
G1 X161.247 Y149.015 E5.52139
G1 X161.018 Y149.773 E5.54773
G1 X160.925 Y150.046 E5.55732
G1 X160.585 Y150.92 E5.58851
G1 X160.172 Y151.762 E5.61971
G1 X159.689 Y152.566 E5.6509
G1 X159.139 Y153.325 E5.68208
G1 X158.461 Y154.104 E5.71643
G1 X158.306 Y154.266 E5.72388
G1 X157.629 Y154.915 E5.75508
G1 X156.9 Y155.504 E5.78625
G1 X156.123 Y156.029 E5.81744
G1 X155.304 Y156.486 E5.84863
G1 X154.419 Y156.884 E5.88091
G1 X154.132 Y156.998 E5.89118
G1 X153.246 Y157.307 E5.92239
G1 X152.337 Y157.539 E5.95359
G1 X151.412 Y157.693 E5.98478
G1 X150.251 Y157.774 E6.02349
G1 X149.276 Y157.788 E6.05592
G1 X82.895 Y157.777 E8.26376
G1 X82.219 Y157.768 E8.28625
G1 X81.282 Y157.716 E8.31746
G1 X80.354 Y157.584 E8.34863
G1 X79.44 Y157.373 E8.37983
G1 X78.402 Y157.03 E8.41619
G1 X78.156 Y156.935 E8.42496
G1 X77.297 Y156.561 E8.45613
G1 X76.472 Y156.114 E8.48733
G1 X75.688 Y155.598 E8.51855
G1 X74.951 Y155.018 E8.54974
G1 X74.083 Y154.185 E8.58976
G1 X73.897 Y153.986 E8.59882
G1 X73.286 Y153.274 E8.63002
G1 X72.738 Y152.513 E8.66121
G1 X72.257 Y151.708 E8.6924
G1 X71.847 Y150.865 E8.72358
G1 X71.51 Y149.99 E8.75477
G1 X71.234 Y149.029 E8.78802
G1 X71.155 Y148.698 E8.79934
G1 X70.976 Y147.777 E8.83055
G1 X70.876 Y146.844 E8.86176
G1 X70.855 Y146.305 E8.8797
G1 X70.843 Y145.392 E8.91007
G1 X70.847 Y89.948 E10.75414
G0 F6000 X71.247 Y89.95
G1 F1200 X71.256 Y88.688 E10.79612
G1 X71.303 Y87.769 E10.82672
G1 X71.429 Y86.857 E10.85734
G1 X71.634 Y85.959 E10.88798
G1 X71.842 Y85.288 E10.91135
G1 X71.934 Y85.023 E10.92068
G1 X72.274 Y84.167 E10.95131
G1 X72.686 Y83.344 E10.98192
G1 X73.168 Y82.559 E11.01256
G1 X73.717 Y81.82 E11.04318
G1 X74.311 Y81.148 E11.07301
G1 X74.465 Y80.988 E11.0804
G1 X75.131 Y80.353 E11.111
G1 X75.851 Y79.779 E11.14163
G1 X76.617 Y79.268 E11.17225
G1 X77.402 Y78.838 E11.20202
G1 X77.59 Y78.745 E11.209
G1 X78.432 Y78.373 E11.23962
G1 X79.303 Y78.075 E11.27024
G1 X80.097 Y77.875 E11.29747
G1 X81.004 Y77.715 E11.3281
G1 X82.212 Y77.626 E11.36839
G1 X83.184 Y77.612 E11.40072
G1 X149.56 Y77.623 E13.6084
G1 X150.236 Y77.632 E13.63088
G1 X151.155 Y77.684 E13.6615
G1 X152.066 Y77.816 E13.69211
G1 X152.963 Y78.026 E13.72275
G1 X153.862 Y78.323 E13.75424
G1 X154.104 Y78.415 E13.76285
G1 X154.949 Y78.779 E13.79346
G1 X155.76 Y79.215 E13.82408
G1 X156.53 Y79.72 E13.85471
G1 X157.253 Y80.29 E13.88533
G1 X158.078 Y81.082 E13.92337
G1 X158.266 Y81.283 E13.93252
G1 X158.866 Y81.982 E13.96316
G1 X159.402 Y82.731 E13.99379
G1 X159.871 Y83.523 E14.02441
G1 X160.409 Y84.695 E14.0673
G1 X160.617 Y85.237 E14.08661
G1 X161.52 Y87.699 E14.17383
G1 X162.966 Y91.263 E14.30175
G1 X163.274 Y92.131 E14.33239
G1 X163.507 Y93.022 E14.36302
G1 X163.661 Y93.929 E14.39362
G1 X163.741 Y95.057 E14.43123
G1 X163.753 Y95.803 E14.45604
G1 X163.752 Y128.789 E15.55316
G1 X163.742 Y129.49 E15.57648
G1 X163.689 Y130.409 E15.6071
G1 X163.511 Y131.542 E15.64524
G1 X163.352 Y132.285 E15.67051
G1 X163.008 Y133.773 E15.72131
G1 X162.521 Y136.199 E15.80361
G1 X162.086 Y138.734 E15.88916
G1 X161.731 Y141.229 E15.97298
G1 X161.449 Y143.701 E16.05573
G1 X161.285 Y145.761 E16.12446
G1 X161.167 Y147.134 E16.1703
G1 X161.048 Y148.047 E16.20092
G1 X160.851 Y148.946 E16.23153
G1 X160.64 Y149.644 E16.25578
G1 X160.547 Y149.917 E16.26538
G1 X160.212 Y150.775 E16.29601
G1 X159.805 Y151.6 E16.32661
G1 X159.327 Y152.387 E16.35723
G1 X158.783 Y153.13 E16.38786
G1 X158.172 Y153.827 E16.41869
G1 X158.017 Y153.989 E16.42615
G1 X157.352 Y154.626 E16.45677
G1 X156.635 Y155.203 E16.48739
G1 X155.87 Y155.715 E16.518
G1 X155.063 Y156.159 E16.54864
G1 X154.271 Y156.512 E16.57748
G1 X153.984 Y156.626 E16.58775
G1 X153.114 Y156.929 E16.61839
G1 X152.222 Y157.154 E16.64899
G1 X151.313 Y157.302 E16.67962
G1 X150.245 Y157.374 E16.71522
G1 X149.276 Y157.388 E16.74745
G1 X82.9 Y157.377 E18.95513
G1 X82.224 Y157.368 E18.97761
G1 X81.305 Y157.316 E19.00823
G1 X80.394 Y157.184 E19.03885
G1 X79.497 Y156.974 E19.06949
G1 X78.546 Y156.657 E19.10283
G1 X78.3 Y156.562 E19.1116
G1 X77.457 Y156.194 E19.14219
G1 X76.648 Y155.753 E19.17284
G1 X75.881 Y155.244 E19.20345
G1 X75.161 Y154.671 E19.23406
G1 X74.375 Y153.912 E19.2704
G1 X74.189 Y153.713 E19.27946
G1 X73.59 Y153.014 E19.31008
G1 X73.054 Y152.265 E19.34071
G1 X72.585 Y151.473 E19.37133
G1 X72.187 Y150.643 E19.40194
G1 X71.862 Y149.782 E19.43255
G1 X71.623 Y148.936 E19.46179
G1 X71.544 Y148.605 E19.47311
G1 X71.369 Y147.701 E19.50373
G1 X71.273 Y146.785 E19.53437
G1 X71.255 Y146.299 E19.55054
G1 X71.243 Y145.392 E19.58071
G1 X71.247 Y89.95 E21.42472
G0 F6000 X71.647 Y89.953
G1 F1200 X71.656 Y88.691 E21.4667
G1 X71.703 Y87.789 E21.49674
G1 X71.829 Y86.895 E21.52677
G1 X72.033 Y86.015 E21.55681
G1 X72.22 Y85.419 E21.57759
G1 X72.312 Y85.154 E21.58692
G1 X72.646 Y84.315 E21.61695
G1 X73.052 Y83.508 E21.647
G1 X73.529 Y82.741 E21.67704
G1 X74.071 Y82.019 E21.70707
G1 X74.599 Y81.426 E21.73348
G1 X74.753 Y81.266 E21.74086
G1 X75.408 Y80.643 E21.77093
G1 X76.114 Y80.081 E21.80094
G1 X76.868 Y79.584 E21.83098
G1 X77.579 Y79.196 E21.85792
G1 X77.767 Y79.103 E21.86489
G1 X78.594 Y78.739 E21.89495
G1 X79.449 Y78.45 E21.92496
G1 X80.183 Y78.265 E21.95014
G1 X81.073 Y78.11 E21.98019
G1 X82.219 Y78.026 E22.01841
G1 X83.184 Y78.012 E22.05051
G1 X149.555 Y78.023 E24.25801
G1 X150.231 Y78.032 E24.2805
G1 X151.132 Y78.084 E24.31052
G1 X152.026 Y78.215 E24.34057
G1 X152.904 Y78.425 E24.37059
G1 X153.72 Y78.697 E24.3992
G1 X153.962 Y78.789 E24.40781
G1 X154.791 Y79.147 E24.43785
G1 X155.585 Y79.577 E24.46788
G1 X156.338 Y80.075 E24.49791
G1 X157.044 Y80.638 E24.52794
G1 X157.786 Y81.355 E24.56226
G1 X157.974 Y81.556 E24.57141
G1 X158.561 Y82.243 E24.60147
G1 X159.086 Y82.978 E24.63151
G1 X159.543 Y83.757 E24.66155
G1 X160.036 Y84.84 E24.70113
G1 X160.242 Y85.375 E24.72019
G1 X161.157 Y87.87 E24.80858
G1 X162.595 Y91.414 E24.93579
G1 X162.897 Y92.265 E24.96582
G1 X163.123 Y93.139 E24.99585
G1 X163.27 Y94.03 E25.02588
G1 X163.341 Y95.064 E25.06036
G1 X163.353 Y95.803 E25.08494
G1 X163.352 Y128.783 E26.18186
G1 X163.342 Y129.484 E26.20518
G1 X163.289 Y130.386 E26.23523
G1 X163.12 Y131.459 E26.27136
G1 X162.962 Y132.195 E26.29639
G1 X162.621 Y133.67 E26.34675
G1 X162.12 Y136.165 E26.43139
G1 X161.695 Y138.646 E26.51511
G1 X161.337 Y141.159 E26.59953
G1 X161.049 Y143.682 E26.68399
G1 X160.887 Y145.726 E26.75219
G1 X160.769 Y147.099 E26.79803
G1 X160.651 Y147.995 E26.82808
G1 X160.456 Y148.877 E26.85813
G1 X160.261 Y149.515 E26.88032
G1 X160.168 Y149.788 E26.88991
G1 X159.839 Y150.629 E26.91995
G1 X159.437 Y151.438 E26.94999
G1 X158.966 Y152.208 E26.98001
G1 X158.428 Y152.933 E27.01004
G1 X157.883 Y153.551 E27.03745
G1 X157.728 Y153.713 E27.0449
G1 X157.075 Y154.337 E27.07494
G1 X156.37 Y154.901 E27.10497
G1 X155.618 Y155.4 E27.13499
G1 X154.824 Y155.831 E27.16504
G1 X154.123 Y156.141 E27.19053
G1 X153.836 Y156.255 E27.2008
G1 X152.983 Y156.55 E27.23082
G1 X152.107 Y156.77 E27.26086
G1 X151.215 Y156.911 E27.2909
G1 X150.238 Y156.974 E27.32346
G1 X149.276 Y156.988 E27.35546
G1 X82.905 Y156.977 E29.56297
G1 X82.229 Y156.968 E29.58546
G1 X81.328 Y156.916 E29.61547
G1 X80.434 Y156.785 E29.64553
G1 X79.556 Y156.575 E29.67555
G1 X78.69 Y156.284 E29.70594
G1 X78.444 Y156.189 E29.71471
G1 X77.617 Y155.827 E29.74473
G1 X76.825 Y155.393 E29.77477
G1 X76.075 Y154.89 E29.80481
G1 X75.372 Y154.323 E29.83485
G1 X74.667 Y153.639 E29.86752
G1 X74.481 Y153.44 E29.87658
G1 X73.894 Y152.754 E29.90661
G1 X73.371 Y152.018 E29.93664
G1 X72.914 Y151.239 E29.96668
G1 X72.528 Y150.422 E29.99673
G1 X72.215 Y149.575 E30.02676
G1 X72.012 Y148.843 E30.05203
G1 X71.933 Y148.512 E30.06335
G1 X71.762 Y147.625 E30.09339
G1 X71.655 Y146.293 E30.13784
G1 X71.643 Y145.392 E30.16781
G1 X71.647 Y89.953 E32.01172
G1 F2700 E27.01172
;MESH:arduino_uno_bottom.stl
G0 F6000 X95.576 Y94.358
G0 X96.334 Y94.754
G1 F2700 E32.01172
G0 F6000 X96.488 Y94.375
;TYPE:WALL-OUTER
G1 F1200 X96.119 Y94.108 E32.02687
G1 X96.106 Y94.097 E32.02743
G1 X95.932 Y93.826 E32.03814
G1 X95.834 Y93.413 E32.05226
G1 X95.865 Y93.096 E32.06286
G1 X95.984 Y92.812 E32.0731
G1 X96.281 Y92.486 E32.08776
G1 X96.563 Y92.335 E32.0984
G1 X96.865 Y92.273 E32.10866
G1 X97.171 Y92.298 E32.11887
G1 X97.571 Y92.479 E32.13347
G1 X97.801 Y92.699 E32.14406
G1 X97.993 Y93.1 E32.15885
G1 X98.028 Y93.417 E32.16945
G1 X97.972 Y93.719 E32.17967
G1 X97.834 Y93.995 E32.18993
G1 X97.517 Y94.298 E32.20452
G1 X97.226 Y94.429 E32.21513
G1 X96.921 Y94.468 E32.22536
G1 X96.488 Y94.375 E32.24009
G0 F6000 X97.376 Y94.8
;TYPE:WALL-INNER
G1 F1200 X96.963 Y94.866 E32.254
G1 X96.757 Y94.852 E32.26087
G1 X96.349 Y94.751 E32.27485
G1 X96.165 Y94.652 E32.2818
G1 X95.872 Y94.422 E32.29418
G1 X95.833 Y94.389 E32.29588
G1 X95.591 Y94.034 E32.31017
G1 X95.515 Y93.844 E32.31698
G1 X95.442 Y93.495 E32.32884
G1 X95.469 Y93.042 E32.34393
G1 X95.619 Y92.648 E32.35795
G1 X95.993 Y92.208 E32.37716
G1 X96.387 Y91.975 E32.39239
G1 X96.795 Y91.879 E32.40633
G1 X97.213 Y91.9 E32.42025
G1 X97.746 Y92.119 E32.43941
G1 X98.089 Y92.421 E32.45461
G1 X98.358 Y92.937 E32.47397
G1 X98.427 Y93.388 E32.48914
G1 X98.363 Y93.802 E32.50308
G1 X98.187 Y94.183 E32.51703
G1 X98.06 Y94.345 E32.52388
G1 X97.759 Y94.617 E32.53737
G1 X97.376 Y94.8 E32.55149
G1 F2700 E27.55149
G0 F6000 X97.378 Y94.81
G0 X96.943 Y95.049
G0 X98.252 Y139.954
G0 X99.242 Y140.623
G0 X99.564 Y141.136
G0 X99.647 Y141.732
G0 X99.498 Y142.254
G0 X99.014 Y142.899
G1 F2700 E32.55149
G0 F6000 X98.787 Y142.558
;TYPE:WALL-OUTER
G1 F1200 X98.496 Y142.689 E32.56211
G1 X98.191 Y142.728 E32.57233
G1 X97.758 Y142.635 E32.58706
G1 X97.389 Y142.368 E32.60221
G1 X97.202 Y142.086 E32.61347
G1 X97.104 Y141.673 E32.62758
G1 X97.135 Y141.356 E32.63818
G1 X97.144 Y141.319 E32.63944
G1 X97.262 Y141.056 E32.64903
G1 X97.551 Y140.746 E32.66313
G1 X97.833 Y140.595 E32.67377
G1 X98.135 Y140.534 E32.68401
G1 X98.441 Y140.558 E32.69422
G1 X98.841 Y140.739 E32.70883
G1 X99.071 Y140.959 E32.71941
G1 X99.263 Y141.36 E32.7342
G1 X99.298 Y141.677 E32.74481
G1 X99.242 Y141.979 E32.75502
G1 X99.104 Y142.255 E32.76529
G1 X98.787 Y142.558 E32.77987
G0 F6000 X98.232 Y143.126
;TYPE:WALL-INNER
G1 F1200 X98.027 Y143.113 E32.7867
G1 X97.663 Y143.023 E32.79917
G1 X97.435 Y142.913 E32.80759
G1 X97.142 Y142.683 E32.81998
G1 X96.86 Y142.295 E32.83594
G1 X96.712 Y141.755 E32.85456
G1 X96.739 Y141.302 E32.86965
G1 X96.765 Y141.19 E32.87348
G1 X96.889 Y140.908 E32.88372
G1 X97.004 Y140.737 E32.89058
G1 X97.263 Y140.468 E32.903
G1 X97.657 Y140.235 E32.91822
G1 X98.065 Y140.14 E32.93216
G1 X98.483 Y140.16 E32.94607
G1 X98.683 Y140.217 E32.95299
G1 X99.043 Y140.393 E32.96632
G1 X99.359 Y140.681 E32.98054
G1 X99.475 Y140.854 E32.98747
G1 X99.628 Y141.197 E32.99996
G1 X99.697 Y141.648 E33.01513
G1 X99.633 Y142.062 E33.02907
G1 X99.457 Y142.443 E33.04303
G1 X99.055 Y142.854 E33.06215
G1 X98.646 Y143.06 E33.07738
G1 X98.232 Y143.126 E33.09132
G1 F2700 E28.09132
G0 F6000 X98.232 Y143.138
G0 X98.791 Y142.935
G0 X99.734 Y142.306
G0 X124.271 Y146.352
G0 X150.001 Y146.179
G1 F2700 E33.09132
G0 F6000 X150.039 Y146.587
;TYPE:WALL-OUTER
G1 F1200 X150.252 Y146.498 E33.099
G1 X150.388 Y146.284 E33.10743
G1 X150.414 Y146.14 E33.1123
G1 X150.414 Y131.864 E33.58712
G1 X150.471 Y131.743 E33.59157
G1 X152.953 Y129.261 E33.70832
G1 X152.953 Y96.135 E34.81009
G1 X152.953 Y95.325 E34.83703
G1 X150.465 Y92.837 E34.95406
G1 X150.413 Y92.7 E34.95893
G1 X150.416 Y88.817 E35.08808
G1 X150.347 Y88.606 E35.09547
G1 X150.154 Y88.456 E35.1036
G1 X149.948 Y88.423 E35.11054
G1 X99.368 Y88.416 E36.79283
G1 X82.421 Y88.413 E37.35649
G1 X82.208 Y88.502 E37.36417
G1 X82.072 Y88.716 E37.3726
G1 X82.047 Y88.86 E37.37747
G1 X82.043 Y146.184 E39.28407
G1 X82.167 Y146.451 E39.29386
G1 X82.384 Y146.578 E39.30222
G1 X150.039 Y146.587 E41.55244
G0 F6000 X149.979 Y146.187
;TYPE:WALL-INNER
G1 F1200 X150.014 Y146.14 E41.55439
G1 X150.013 Y131.861 E42.02931
G1 X150.095 Y131.581 E42.03901
G1 X150.188 Y131.46 E42.04409
G1 X152.553 Y129.095 E42.15533
G1 X152.553 Y96.135 E43.25158
G1 X152.553 Y95.491 E43.273
G1 X150.188 Y93.126 E43.38425
G1 X150.042 Y92.888 E43.39353
G1 X150.013 Y92.7 E43.39986
G1 X150.016 Y88.881 E43.52688
G1 X149.993 Y88.822 E43.52899
G1 X143.366 Y88.822 E43.7494
G1 X141.919 Y88.821 E43.79753
G1 X82.481 Y88.813 E45.77445
G1 X82.447 Y88.86 E45.77637
G1 X82.443 Y146.12 E47.68085
G1 X82.467 Y146.178 E47.68294
G1 X149.979 Y146.187 E49.9284
G1 F2700 E44.9284
G0 F6000 X149.979 Y146.178
G0 X150.185 Y131.708
G0 X149.3 Y127.98
G0 X148.404 Y127.714
G1 F2700 E49.9284
G0 F6000 X148.558 Y127.335
;TYPE:WALL-OUTER
G1 F1200 X148.189 Y127.068 E49.94354
G1 X148.002 Y126.786 E49.9548
G1 X147.904 Y126.373 E49.96892
G1 X147.935 Y126.056 E49.97951
G1 X147.948 Y126.008 E49.98116
G1 X148.063 Y125.754 E49.99044
G1 X148.351 Y125.446 E50.00446
G1 X148.633 Y125.295 E50.0151
G1 X148.935 Y125.234 E50.02535
G1 X149.241 Y125.258 E50.03556
G1 X149.641 Y125.439 E50.05016
G1 X149.871 Y125.66 E50.06077
G1 X150.063 Y126.06 E50.07553
G1 X150.098 Y126.377 E50.08614
G1 X150.042 Y126.679 E50.09635
G1 X149.904 Y126.955 E50.10661
G1 X149.587 Y127.258 E50.1212
G1 X149.296 Y127.389 E50.13181
G1 X148.991 Y127.429 E50.14204
G1 X148.558 Y127.335 E50.15678
G0 F6000 X148.235 Y127.612
;TYPE:WALL-INNER
G1 F1200 X147.932 Y127.375 E50.16958
G1 X147.661 Y126.994 E50.18513
G1 X147.585 Y126.804 E50.19193
G1 X147.507 Y126.43 E50.20464
G1 X147.539 Y126.002 E50.21892
G1 X147.578 Y125.856 E50.22394
G1 X147.706 Y125.573 E50.23427
G1 X148.063 Y125.168 E50.25223
