;FLAVOR:Marlin
;TIME:5102
;Filament used: 4.12353m
;Layer height: 0.2
;MINX:79.903
;MINY:50.8
;MINZ:0.2
;MAXX:153.002
;MAXY:186.306
;MAXZ:20.2
;Generated with Cura_SteamEngine 5.0.0
M140 S50
M105
M190 S50
M104 S200
M105
M109 S200
M82 ;absolute extrusion mode
; Ender 3 Custom Start G-code
G92 E0 ; Reset Extruder
G28 ; Home all axes
G1 Z2.0 F3000 ; Move Z Axis up little to prevent scratching of Heat Bed
G1 X0.1 Y20 Z0.3 F5000.0 ; Move to start position
G1 X0.1 Y200.0 Z0.3 F1500.0 E15 ; Draw the first line
G1 X0.4 Y200.0 Z0.3 F5000.0 ; Move to side a little
G1 X0.4 Y20 Z0.3 F1500.0 E30 ; Draw the second line
G92 E0 ; Reset Extruder
G1 Z2.0 F3000 ; Move Z Axis up little to prevent scratching of Heat Bed
G1 X5 Y20 Z0.3 F5000.0 ; Move over to prevent blob squish
G92 E0
G92 E0
G1 F2700 E-5
;LAYER_COUNT:101
;LAYER:0
M107
G0 F6000 X118.131 Y60.675 Z0.2
G0 X116.157 Y66.38
;TYPE:SKIRT
G1 F2700 E0
G1 F1200 X116.34 Y65.577 E0.02739
G1 X116.582 Y64.576 E0.06165
G1 X116.841 Y63.675 E0.09283
G1 X117.196 Y62.752 E0.12572
G1 X117.823 Y61.329 E0.17744
G1 X118.131 Y60.675 E0.20148
G1 X118.567 Y59.845 E0.23266
G1 X119.071 Y59.054 E0.26386
G1 X119.464 Y58.528 E0.2857
G1 X120.236 Y57.561 E0.32685
G1 X120.9 Y56.77 E0.3612
G1 X121.533 Y56.078 E0.3924
G1 X122.223 Y55.442 E0.42361
G1 X122.76 Y55.016 E0.4464
G1 X123.736 Y54.295 E0.48676
G1 X124.598 Y53.69 E0.52179
G1 X125.388 Y53.185 E0.55298
G1 X126.218 Y52.748 E0.58417
G1 X126.924 Y52.444 E0.60974
G1 X128.409 Y51.87 E0.66269
G1 X129.045 Y51.642 E0.68516
G1 X129.94 Y51.364 E0.71634
G1 X130.856 Y51.162 E0.74753
G1 X131.492 Y51.07 E0.76891
G1 X132.678 Y50.937 E0.8086
G1 X133.741 Y50.843 E0.84409
G1 X134.678 Y50.8 E0.87529
G1 X135.615 Y50.837 E0.90648
G1 X136.318 Y50.918 E0.93002
G1 X137.479 Y51.094 E0.96907
G1 X138.542 Y51.28 E1.00497
G1 X139.458 Y51.481 E1.03616
G1 X140.354 Y51.759 E1.06736
G1 X141.064 Y52.041 E1.09277
G1 X142.473 Y52.663 E1.144
G1 X143.127 Y52.971 E1.16804
G1 X143.957 Y53.407 E1.19922
G1 X144.748 Y53.911 E1.23042
G1 X145.273 Y54.302 E1.25219
G1 X146.214 Y55.054 E1.29225
G1 X147.027 Y55.736 E1.32755
G1 X147.719 Y56.368 E1.35872
G1 X148.354 Y57.058 E1.38991
G1 X148.779 Y57.593 E1.41263
G1 X149.534 Y58.614 E1.45487
G1 X150.115 Y59.443 E1.48854
G1 X150.62 Y60.233 E1.51972
G1 X151.056 Y61.064 E1.55094
G1 X151.357 Y61.763 E1.57625
G1 X151.918 Y63.213 E1.62796
G1 X152.154 Y63.867 E1.65109
G1 X152.434 Y64.762 E1.68228
G1 X152.638 Y65.678 E1.71349
G1 X152.743 Y66.413 E1.73818
G1 X152.912 Y68.003 E1.79136
G1 X152.965 Y68.645 E1.81279
G1 X153.002 Y69.582 E1.84398
G1 X152.959 Y70.519 E1.87518
G1 X152.884 Y71.158 E1.89658
G1 X152.708 Y72.321 E1.9357
G1 X152.522 Y73.383 E1.97156
G1 X152.321 Y74.299 E2.00275
G1 X152.043 Y75.194 E2.03392
G1 X151.762 Y75.9 E2.05919
G1 X151.139 Y77.313 E2.11055
G1 X150.831 Y77.967 E2.1346
G1 X150.395 Y78.797 E2.16578
G1 X149.891 Y79.588 E2.19698
G1 X149.464 Y80.157 E2.22064
G1 X148.472 Y81.389 E2.27325
G1 X147.695 Y82.307 E2.31325
G1 X146.052 Y84.305 E2.39929
G1 X144.488 Y86.319 E2.4841
G1 X143.016 Y88.329 E2.56696
G1 X141.567 Y90.431 E2.65187
G1 X140.216 Y92.516 E2.73451
G1 X138.908 Y94.665 E2.81818
G1 X137.662 Y96.849 E2.90181
G1 X136.475 Y99.072 E2.98563
G1 X135.061 Y101.934 E3.0918
G1 X132.051 Y108.296 E3.32589
G1 X130.987 Y110.628 E3.41115
G1 X129.993 Y112.984 E3.4962
G1 X129.077 Y115.337 E3.58018
G1 X128.247 Y117.664 E3.66235
G1 X127.403 Y120.264 E3.75327
G1 X126.473 Y123.278 E3.85818
G1 X125.753 Y125.734 E3.9433
G1 X125.105 Y128.201 E4.02814
G1 X124.537 Y130.646 E4.11163
G1 X124.039 Y133.104 E4.19504
G1 X123.609 Y135.576 E4.2785
G1 X123.246 Y138.086 E4.36285
G1 X122.952 Y140.62 E4.44769
G1 X122.813 Y142.104 E4.49727
G1 X122.074 Y150.777 E4.78678
G1 X121.892 Y153.34 E4.87224
G1 X121.785 Y155.861 E4.95616
G1 X121.748 Y158.385 E5.04012
G1 X121.783 Y160.907 E5.12401
G1 X121.889 Y163.406 E5.2072
G1 X122.069 Y165.96 E5.29236
G1 X122.253 Y167.899 E5.35714
G1 X122.302 Y168.835 E5.38831
G1 X122.27 Y169.773 E5.41953
G1 X122.159 Y170.704 E5.45072
G1 X121.969 Y171.622 E5.4819
G1 X121.702 Y172.521 E5.51309
G1 X121.358 Y173.394 E5.5443
G1 X120.942 Y174.235 E5.5755
G1 X120.456 Y175.037 E5.60669
G1 X120.186 Y175.423 E5.62236
G1 X119.58 Y176.253 E5.65654
G1 X118.081 Y178.367 E5.74274
G1 X116.091 Y181.371 E5.86258
G1 X115.54 Y182.13 E5.89378
G1 X114.926 Y182.839 E5.92497
G1 X114.255 Y183.494 E5.95616
G1 X113.53 Y184.089 E5.98736
G1 X112.757 Y184.62 E6.01855
G1 X111.941 Y185.083 E6.04975
G1 X111.089 Y185.475 E6.08095
G1 X110.207 Y185.793 E6.11213
G1 X109.301 Y186.035 E6.14332
G1 X108.377 Y186.199 E6.17453
G1 X107.083 Y186.295 E6.21769
G1 X106.24 Y186.306 E6.24573
G1 X95.566 Y186.299 E6.60075
G1 X94.908 Y186.289 E6.62264
G1 X93.972 Y186.235 E6.65382
G1 X93.043 Y186.101 E6.68504
G1 X92.13 Y185.888 E6.71622
G1 X91.238 Y185.599 E6.74741
G1 X90.373 Y185.235 E6.77862
G1 X89.543 Y184.798 E6.80982
G1 X88.754 Y184.292 E6.84099
G1 X88.01 Y183.721 E6.87219
G1 X87.317 Y183.089 E6.90338
G1 X86.681 Y182.399 E6.93459
G1 X86.106 Y181.658 E6.96579
G1 X85.785 Y181.181 E6.98491
G1 X85.325 Y180.453 E7.01355
G1 X84.703 Y179.442 E7.05303
G1 X83.344 Y177.368 E7.13551
G1 X82.396 Y176.014 E7.19048
G1 X81.819 Y175.169 E7.22451
G1 X81.323 Y174.373 E7.25571
G1 X80.898 Y173.537 E7.2869
G1 X80.545 Y172.668 E7.3181
G1 X80.267 Y171.772 E7.3493
G1 X80.067 Y170.856 E7.38048
G1 X79.945 Y169.926 E7.41168
G1 X79.903 Y168.989 E7.44288
G1 X79.941 Y168.052 E7.47407
G1 X80.059 Y167.122 E7.50525
G1 X80.255 Y166.205 E7.53643
G1 X80.411 Y165.66 E7.55529
G1 X80.789 Y164.466 E7.59694
G1 X80.953 Y163.972 E7.61426
G1 X81.673 Y161.569 E7.69769
G1 X82.322 Y159.15 E7.78099
G1 X82.908 Y156.703 E7.86468
G1 X83.541 Y153.626 E7.96917
G1 X88.196 Y128.879 E8.80669
G1 X88.329 Y128.224 E8.82892
G1 X88.555 Y127.314 E8.86011
G1 X88.859 Y126.422 E8.89145
G1 X89.248 Y125.426 E8.92701
G1 X96.974 Y106.515 E9.60646
G1 X97.282 Y105.791 E9.63263
G1 X97.9 Y104.558 E9.6785
G1 X98.275 Y103.919 E9.70315
G1 X105.583 Y91.93 E10.17014
G1 X106.922 Y89.662 E10.25774
G1 X108.126 Y87.484 E10.34052
G1 X109.277 Y85.256 E10.42392
G1 X110.377 Y82.967 E10.50839
G1 X111.394 Y80.691 E10.5913
G1 X112.36 Y78.354 E10.67541
G1 X113.267 Y75.968 E10.76031
G1 X114.082 Y73.629 E10.84269
G1 X114.851 Y71.203 E10.92734
G1 X115.538 Y68.801 E11.01043
G1 X116.157 Y66.38 E11.09355
G1 F2700 E6.09355
G0 F6000 X115.221 Y71.361
G1 F2700 E11.09355
G1 F1200 X115.924 Y68.905 E11.17851
G1 X116.55 Y66.456 E11.26259
G1 X116.729 Y65.671 E11.28937
G1 X116.971 Y64.67 E11.32362
G1 X117.226 Y63.785 E11.35425
G1 X117.563 Y62.912 E11.38538
G1 X118.185 Y61.5 E11.43669
G1 X118.493 Y60.846 E11.46074
G1 X118.921 Y60.031 E11.49136
G1 X119.418 Y59.256 E11.52198
G1 X119.777 Y58.776 E11.54191
G1 X120.542 Y57.818 E11.58269
G1 X121.206 Y57.027 E11.61704
G1 X121.828 Y56.348 E11.64767
G1 X122.507 Y55.726 E11.67829
G1 X122.999 Y55.337 E11.69915
G1 X123.965 Y54.623 E11.73911
G1 X124.827 Y54.018 E11.77413
G1 X125.603 Y53.522 E11.80477
G1 X126.419 Y53.096 E11.83538
G1 X127.07 Y52.817 E11.85894
G1 X128.544 Y52.247 E11.9115
G1 X129.18 Y52.019 E11.93397
G1 X130.059 Y51.746 E11.96459
G1 X130.959 Y51.551 E11.99522
G1 X131.538 Y51.467 E12.01467
G1 X132.713 Y51.335 E12.054
G1 X133.776 Y51.241 E12.08949
G1 X134.696 Y51.2 E12.12012
G1 X135.616 Y51.239 E12.15075
G1 X136.259 Y51.314 E12.17228
G1 X137.41 Y51.488 E12.211
G1 X138.473 Y51.674 E12.24689
G1 X139.372 Y51.872 E12.27751
G1 X140.251 Y52.147 E12.30814
G1 X140.904 Y52.408 E12.33153
G1 X142.302 Y53.025 E12.38236
G1 X142.956 Y53.333 E12.4064
G1 X143.771 Y53.761 E12.43702
G1 X144.546 Y54.258 E12.46764
G1 X145.024 Y54.616 E12.4875
G1 X145.956 Y55.36 E12.52717
G1 X146.769 Y56.042 E12.56246
G1 X147.448 Y56.664 E12.59309
G1 X148.071 Y57.342 E12.62371
G1 X148.458 Y57.832 E12.64448
G1 X149.206 Y58.843 E12.68631
G1 X149.787 Y59.672 E12.71998
G1 X150.283 Y60.449 E12.75064
G1 X150.708 Y61.265 E12.78124
G1 X150.984 Y61.908 E12.80451
G1 X151.542 Y63.349 E12.85591
G1 X151.778 Y64.003 E12.87903
G1 X152.052 Y64.882 E12.90966
G1 X152.25 Y65.781 E12.94028
G1 X152.345 Y66.456 E12.96295
G1 X152.513 Y68.036 E13.01579
G1 X152.566 Y68.678 E13.03722
G1 X152.602 Y69.598 E13.06784
G1 X152.558 Y70.517 E13.09844
G1 X152.488 Y71.099 E13.11794
G1 X152.314 Y72.252 E13.15672
G1 X152.128 Y73.314 E13.19258
G1 X151.93 Y74.213 E13.2232
G1 X151.655 Y75.091 E13.2538
G1 X151.396 Y75.739 E13.27701
G1 X150.777 Y77.142 E13.32802
G1 X150.469 Y77.796 E13.35206
G1 X150.041 Y78.611 E13.38268
G1 X149.544 Y79.386 E13.4133
G1 X149.152 Y79.907 E13.43499
G1 X148.167 Y81.13 E13.48721
G1 X147.394 Y82.043 E13.527
G1 X145.729 Y84.068 E13.6142
G1 X144.165 Y86.083 E13.69904
G1 X142.691 Y88.095 E13.78199
G1 X141.246 Y90.193 E13.86672
G1 X139.887 Y92.287 E13.94975
G1 X138.553 Y94.48 E14.03513
G1 X137.304 Y96.668 E14.11892
G1 X136.121 Y98.885 E14.2025
G1 X134.721 Y101.717 E14.30757
G1 X131.698 Y108.108 E14.54272
G1 X130.606 Y110.501 E14.63021
G1 X129.622 Y112.833 E14.71439
G1 X128.715 Y115.164 E14.79758
G1 X127.863 Y117.553 E14.88194
G1 X127.02 Y120.15 E14.97276
G1 X126.1 Y123.129 E15.07646
G1 X125.362 Y125.648 E15.16376
G1 X124.721 Y128.089 E15.2477
G1 X124.143 Y130.574 E15.33256
G1 X123.646 Y133.028 E15.41583
G1 X123.212 Y135.527 E15.5002
G1 X122.847 Y138.049 E15.58495
G1 X122.558 Y140.541 E15.66839
G1 X122.415 Y142.066 E15.71934
G1 X121.67 Y150.809 E16.01118
G1 X121.492 Y153.329 E16.09521
G1 X121.385 Y155.838 E16.17873
G1 X121.348 Y158.385 E16.26346
G1 X121.383 Y160.93 E16.34811
G1 X121.489 Y163.415 E16.43084
G1 X121.67 Y165.986 E16.51656
G1 X121.855 Y167.937 E16.58174
G1 X121.902 Y168.856 E16.61235
G1 X121.869 Y169.776 E16.64297
G1 X121.756 Y170.69 E16.6736
G1 X121.565 Y171.59 E16.7042
G1 X121.296 Y172.471 E16.73484
G1 X120.951 Y173.325 E16.76547
G1 X120.534 Y174.145 E16.79607
G1 X119.863 Y175.187 E16.83729
G1 X119.281 Y175.984 E16.87011
G1 X117.734 Y178.166 E16.95908
G1 X115.757 Y181.15 E17.07813
G1 X115.216 Y181.895 E17.10875
G1 X114.612 Y182.589 E17.13935
G1 X113.95 Y183.229 E17.16998
G1 X113.235 Y183.809 E17.2006
G1 X112.473 Y184.325 E17.23121
G1 X111.668 Y184.773 E17.26185
G1 X110.828 Y185.149 E17.29246
G1 X109.958 Y185.451 E17.32309
G1 X109.065 Y185.677 E17.35373
G1 X108.157 Y185.824 E17.38432
G1 X107.077 Y185.895 E17.42032
G1 X106.24 Y185.906 E17.44816
G1 X95.572 Y185.899 E17.80298
G1 X94.914 Y185.889 E17.82487
G1 X93.995 Y185.835 E17.85549
G1 X93.084 Y185.701 E17.88611
G1 X92.188 Y185.489 E17.91674
G1 X91.314 Y185.2 E17.94735
G1 X90.468 Y184.837 E17.97797
G1 X89.657 Y184.401 E18.0086
G1 X88.887 Y183.896 E18.03923
G1 X88.164 Y183.327 E18.06983
G1 X87.492 Y182.697 E18.10046
G1 X86.878 Y182.011 E18.13108
G1 X86.123 Y180.966 E18.17396
G1 X85.666 Y180.243 E18.20241
G1 X85.061 Y179.26 E18.2408
G1 X83.654 Y177.112 E18.32621
G1 X82.726 Y175.788 E18.37998
G1 X82.149 Y174.943 E18.41402
G1 X81.663 Y174.161 E18.44464
G1 X81.248 Y173.34 E18.47524
G1 X80.904 Y172.486 E18.50586
G1 X80.637 Y171.605 E18.53648
G1 X80.446 Y170.704 E18.56711
G1 X80.335 Y169.79 E18.59773
G1 X80.303 Y168.87 E18.62835
G1 X80.352 Y167.951 E18.65896
G1 X80.48 Y167.039 E18.68959
G1 X80.793 Y165.781 E18.73271
G1 X81.169 Y164.592 E18.77418
G1 X81.33 Y164.107 E18.79118
G1 X82.056 Y161.683 E18.87534
G1 X82.712 Y159.242 E18.95941
G1 X83.301 Y156.781 E19.04357
G1 X83.941 Y153.669 E19.14925
G1 X88.588 Y128.959 E19.98551
G1 X88.721 Y128.304 E20.00774
G1 X88.943 Y127.41 E20.03838
G1 X89.231 Y126.567 E20.06801
G1 X89.618 Y125.578 E20.10333
G1 X97.342 Y106.671 E20.78263
G1 X97.65 Y105.947 E20.8088
G1 X98.246 Y104.76 E20.85298
G1 X98.617 Y104.127 E20.87738
G1 X105.945 Y92.105 E21.34566
G1 X107.25 Y89.895 E21.43103
G1 X108.481 Y87.667 E21.51569
G1 X109.627 Y85.448 E21.59875
G1 X110.745 Y83.125 E21.6845
G1 X111.771 Y80.828 E21.76817
G1 X112.728 Y78.512 E21.85152
G1 X113.643 Y76.104 E21.9372
G1 X114.469 Y73.734 E22.02067
G1 X115.221 Y71.361 E22.10347
G1 F2700 E17.10347
G0 F6000 X114.023 Y76.23
G1 F2700 E22.10347
G1 F1200 X114.841 Y73.881 E22.1862
G1 X115.611 Y71.454 E22.27089
G1 X116.311 Y69.008 E22.35551
G1 X116.932 Y66.577 E22.43896
G1 X117.118 Y65.765 E22.46667
G1 X117.36 Y64.764 E22.50092
G1 X117.61 Y63.897 E22.53093
G1 X117.929 Y63.072 E22.56035
G1 X118.547 Y61.67 E22.61131
G1 X118.855 Y61.016 E22.63535
G1 X119.276 Y60.217 E22.66539
G1 X119.765 Y59.458 E22.69542
G1 X120.09 Y59.025 E22.71343
G1 X120.849 Y58.075 E22.75387
G1 X121.513 Y57.284 E22.78822
G1 X122.123 Y56.619 E22.81823
G1 X122.791 Y56.01 E22.8483
G1 X123.237 Y55.658 E22.8672
G1 X124.195 Y54.95 E22.90682
G1 X125.057 Y54.345 E22.94184
G1 X125.819 Y53.86 E22.97189
G1 X126.62 Y53.443 E23.00192
G1 X127.215 Y53.19 E23.02343
G1 X128.679 Y52.623 E23.07564
G1 X129.315 Y52.395 E23.09812
G1 X130.178 Y52.129 E23.12815
G1 X131.061 Y51.939 E23.15819
G1 X131.584 Y51.865 E23.17576
G1 X132.749 Y51.734 E23.21475
G1 X133.812 Y51.64 E23.25025
G1 X134.714 Y51.6 E23.28028
G1 X135.616 Y51.64 E23.31031
G1 X136.201 Y51.71 E23.3299
G1 X137.341 Y51.882 E23.36825
G1 X138.404 Y52.068 E23.40414
G1 X139.286 Y52.263 E23.43419
G1 X140.147 Y52.535 E23.46422
G1 X140.743 Y52.774 E23.48557
G1 X142.132 Y53.387 E23.53607
G1 X142.786 Y53.695 E23.56012
G1 X143.585 Y54.116 E23.59015
G1 X144.344 Y54.605 E23.62018
G1 X144.776 Y54.929 E23.63814
G1 X145.699 Y55.666 E23.67743
G1 X146.512 Y56.348 E23.71272
G1 X147.178 Y56.959 E23.74279
G1 X147.787 Y57.626 E23.77283
G1 X148.138 Y58.07 E23.79165
G1 X148.879 Y59.073 E23.83313
G1 X149.46 Y59.902 E23.8668
G1 X149.945 Y60.664 E23.89684
G1 X150.361 Y61.465 E23.92686
G1 X150.611 Y62.053 E23.94811
G1 X151.165 Y63.485 E23.99918
G1 X151.401 Y64.139 E24.0223
G1 X151.67 Y65.001 E24.05234
G1 X151.861 Y65.884 E24.08239
G1 X151.947 Y66.499 E24.10304
G1 X152.114 Y68.069 E24.15555
G1 X152.167 Y68.711 E24.17698
G1 X152.202 Y69.613 E24.207
G1 X152.156 Y70.515 E24.23704
G1 X152.092 Y71.041 E24.25467
G1 X151.92 Y72.183 E24.29308
G1 X151.734 Y73.245 E24.32894
G1 X151.539 Y74.126 E24.35895
G1 X151.267 Y74.988 E24.38901
G1 X151.029 Y75.579 E24.4102
G1 X150.415 Y76.972 E24.46083
G1 X150.107 Y77.626 E24.48488
G1 X149.686 Y78.425 E24.51492
G1 X149.197 Y79.184 E24.54495
G1 X148.84 Y79.657 E24.56466
G1 X147.862 Y80.872 E24.61653
G1 X147.064 Y81.814 E24.6576
G1 X145.419 Y83.814 E24.74373
G1 X143.859 Y85.824 E24.82835
G1 X142.356 Y87.877 E24.91298
G1 X140.914 Y89.97 E24.99751
G1 X139.538 Y92.092 E25.08163
G1 X138.206 Y94.28 E25.16683
G1 X136.962 Y96.461 E25.25034
G1 X135.76 Y98.711 E25.33518
G1 X134.358 Y101.548 E25.44044
G1 X131.344 Y107.92 E25.67488
G1 X130.245 Y110.329 E25.76295
G1 X129.245 Y112.699 E25.84851
G1 X128.337 Y115.032 E25.93177
G1 X127.485 Y117.422 E26.01616
G1 X126.649 Y119.993 E26.10608
G1 X125.714 Y123.027 E26.21168
G1 X124.974 Y125.549 E26.2991
G1 X124.33 Y128.001 E26.38341
G1 X123.755 Y130.475 E26.46789
G1 X123.253 Y132.951 E26.55192
G1 X122.816 Y135.467 E26.63686
G1 X122.452 Y137.983 E26.72141
G1 X122.155 Y140.547 E26.80726
G1 X122.024 Y141.943 E26.85389
G1 X121.275 Y150.725 E27.14705
G1 X121.094 Y153.284 E27.23237
G1 X120.985 Y155.851 E27.31783
G1 X120.948 Y158.385 E27.40212
G1 X120.983 Y160.918 E27.48637
G1 X121.091 Y163.46 E27.571
G1 X121.274 Y166.049 E27.65732
G1 X121.456 Y167.974 E27.72163
G1 X121.502 Y168.876 E27.75167
G1 X121.467 Y169.779 E27.78173
G1 X121.353 Y170.675 E27.81177
G1 X121.16 Y171.557 E27.8418
G1 X120.889 Y172.418 E27.87182
G1 X120.544 Y173.253 E27.90187
G1 X120.126 Y174.053 E27.93189
G1 X119.54 Y174.951 E27.96756
G1 X118.912 Y175.811 E28.00298
G1 X117.426 Y177.906 E28.0884
G1 X115.424 Y180.929 E28.209
G1 X114.892 Y181.659 E28.23904
G1 X114.298 Y182.339 E28.26907
G1 X113.646 Y182.964 E28.29911
G1 X112.941 Y183.529 E28.32916
G1 X112.19 Y184.029 E28.35917
G1 X111.396 Y184.461 E28.38923
G1 X110.568 Y184.821 E28.41926
G1 X109.711 Y185.107 E28.44931
G1 X108.833 Y185.315 E28.47932
G1 X107.939 Y185.445 E28.50937
G1 X107.071 Y185.495 E28.53829
G1 X106.24 Y185.506 E28.56593
G1 X95.578 Y185.499 E28.92055
G1 X94.92 Y185.489 E28.94244
G1 X94.018 Y185.435 E28.97249
G1 X93.125 Y185.302 E29.00252
G1 X92.247 Y185.09 E29.03256
G1 X91.392 Y184.802 E29.06257
G1 X90.565 Y184.439 E29.09261
G1 X89.773 Y184.004 E29.12266
G1 X89.023 Y183.501 E29.1527
G1 X88.321 Y182.933 E29.18273
