;FLAVOR:Marlin
;TIME:1883
;Filament used: 0.966m
;Layer height: 0.2
;MINX:96.45
;MINY:96.45
;MINZ:0.2
;MAXX:138.55
;MAXY:138.55
;MAXZ:16.2
;Generated with Cura_SteamEngine 5.0.0
M140 S50
M105
M190 S50
M104 S200
M105
M109 S200
M82 ;absolute extrusion mode
; Ender 3 Custom Start G-code
G92 E0 ; Reset Extruder
G28 ; Home all axes
G1 Z2.0 F3000 ; Move Z Axis up little to prevent scratching of Heat Bed
G1 X0.1 Y20 Z0.3 F5000.0 ; Move to start position
G1 X0.1 Y200.0 Z0.3 F1500.0 E15 ; Draw the first line
G1 X0.4 Y200.0 Z0.3 F5000.0 ; Move to side a little
G1 X0.4 Y20 Z0.3 F1500.0 E30 ; Draw the second line
G92 E0 ; Reset Extruder
G1 Z2.0 F3000 ; Move Z Axis up little to prevent scratching of Heat Bed
G1 X5 Y20 Z0.3 F5000.0 ; Move over to prevent blob squish
G92 E0
G92 E0
G1 F2700 E-5
;LAYER_COUNT:81
;LAYER:0
M107
G0 F6000 X99.648 Y99.714 Z0.2
G0 X96.451 Y107.975
;TYPE:SKIRT
G1 F2700 E0
G1 F1200 X96.46 Y107.31 E0.02212
G1 X96.513 Y106.374 E0.0533
G1 X96.645 Y105.445 E0.08451
G1 X96.856 Y104.531 E0.11571
G1 X97.144 Y103.639 E0.14689
G1 X97.507 Y102.774 E0.17809
G1 X97.942 Y101.943 E0.20928
G1 X98.446 Y101.153 E0.24045
G1 X99.016 Y100.408 E0.27165
G1 X99.648 Y99.714 E0.30287
G1 X100.336 Y99.077 E0.33405
G1 X101.076 Y98.501 E0.36524
G1 X101.862 Y97.989 E0.39644
G1 X102.689 Y97.547 E0.42763
G1 X103.551 Y97.177 E0.45883
G1 X104.441 Y96.881 E0.49003
G1 X105.353 Y96.663 E0.52122
G1 X106.28 Y96.522 E0.5524
G1 X107.151 Y96.463 E0.58144
G1 X107.78 Y96.45 E0.60236
G1 X111.879 Y96.45 E0.7387
G1 X113.062 Y96.47 E0.77805
G1 X113.654 Y96.495 E0.79776
G1 X116.192 Y96.568 E0.88221
G1 X118.716 Y96.568 E0.96615
G1 X121.292 Y96.496 E1.05187
G1 X122.413 Y96.455 E1.08918
G1 X126.843 Y96.45 E1.23652
G1 X127.699 Y96.461 E1.26499
G1 X128.635 Y96.515 E1.29617
G1 X129.563 Y96.647 E1.32735
G1 X130.477 Y96.859 E1.35856
G1 X131.369 Y97.148 E1.38974
G1 X132.234 Y97.511 E1.42094
G1 X133.064 Y97.947 E1.45213
G1 X133.855 Y98.452 E1.48334
G1 X134.599 Y99.023 E1.51453
G1 X135.292 Y99.655 E1.54573
G1 X135.929 Y100.343 E1.57691
G1 X136.504 Y101.084 E1.60811
G1 X137.015 Y101.87 E1.63929
G1 X137.457 Y102.698 E1.67051
G1 X137.826 Y103.56 E1.7017
G1 X138.121 Y104.45 E1.73288
G1 X138.339 Y105.362 E1.76407
G1 X138.479 Y106.29 E1.79528
G1 X138.537 Y107.151 E1.82398
G1 X138.55 Y107.78 E1.84491
G1 X138.549 Y126.95 E2.48251
G1 X138.54 Y127.677 E2.50669
G1 X138.489 Y128.614 E2.5379
G1 X138.357 Y129.542 E2.56908
G1 X138.148 Y130.456 E2.60026
G1 X137.861 Y131.349 E2.63146
G1 X137.499 Y132.215 E2.66268
G1 X137.065 Y133.046 E2.69386
G1 X136.561 Y133.837 E2.72505
G1 X135.992 Y134.582 E2.75623
G1 X135.361 Y135.277 E2.78745
G1 X134.674 Y135.915 E2.81864
G1 X133.935 Y136.492 E2.84982
G1 X133.149 Y137.004 E2.88102
G1 X132.323 Y137.447 E2.9122
G1 X131.461 Y137.819 E2.94342
G1 X130.572 Y138.115 E2.97459
G1 X129.66 Y138.335 E3.00579
G1 X128.733 Y138.476 E3.03698
G1 X127.849 Y138.537 E3.06645
G1 X127.22 Y138.55 E3.08737
G1 X108.015 Y138.549 E3.72613
G1 X107.317 Y138.54 E3.74935
G1 X106.381 Y138.488 E3.78053
G1 X105.452 Y138.356 E3.81174
G1 X104.538 Y138.146 E3.84293
G1 X103.645 Y137.859 E3.87413
G1 X102.78 Y137.496 E3.90533
G1 X101.949 Y137.062 E3.93651
G1 X101.158 Y136.558 E3.96771
G1 X100.413 Y135.988 E3.99891
G1 X99.719 Y135.357 E4.0301
G1 X99.082 Y134.67 E4.06126
G1 X98.505 Y133.93 E4.09247
G1 X97.993 Y133.144 E4.12367
G1 X97.55 Y132.317 E4.15488
G1 X97.179 Y131.456 E4.18606
G1 X96.883 Y130.566 E4.21726
G1 X96.664 Y129.654 E4.24845
G1 X96.523 Y128.727 E4.27964
G1 X96.463 Y127.838 E4.30927
G1 X96.45 Y127.208 E4.33023
G1 X96.451 Y107.975 E4.96992
G0 F6000 X96.851 Y107.981
G1 F1200 X96.86 Y107.316 E4.99204
G1 X96.912 Y106.396 E5.02269
G1 X97.044 Y105.485 E5.05331
G1 X97.255 Y104.589 E5.08393
G1 X97.542 Y103.714 E5.11455
G1 X97.905 Y102.868 E5.14517
G1 X98.339 Y102.056 E5.1758
G1 X98.842 Y101.285 E5.20641
G1 X99.411 Y100.561 E5.23704
G1 X100.039 Y99.889 E5.26763
G1 X100.724 Y99.273 E5.29827
G1 X101.46 Y98.72 E5.32889
G1 X102.241 Y98.232 E5.35952
G1 X103.061 Y97.814 E5.39013
G1 X103.915 Y97.469 E5.42077
G1 X104.795 Y97.199 E5.45138
G1 X105.695 Y97.007 E5.48199
G1 X106.609 Y96.893 E5.51263
G1 X107.162 Y96.863 E5.53105
G1 X107.78 Y96.85 E5.55161
G1 X111.879 Y96.85 E5.68794
G1 X113.044 Y96.87 E5.72669
G1 X113.553 Y96.892 E5.74364
G1 X116.215 Y96.968 E5.83221
G1 X118.727 Y96.968 E5.91576
G1 X121.279 Y96.897 E6.00068
G1 X121.812 Y96.873 E6.01842
G1 X122.736 Y96.85 E6.04916
G1 X126.995 Y96.851 E6.19082
G1 X127.693 Y96.861 E6.21404
G1 X128.612 Y96.914 E6.24465
G1 X129.523 Y97.047 E6.27527
G1 X130.419 Y97.258 E6.30589
G1 X131.293 Y97.546 E6.3365
G1 X132.14 Y97.909 E6.36715
G1 X132.951 Y98.344 E6.39776
G1 X133.721 Y98.848 E6.42836
G1 X134.445 Y99.417 E6.45899
G1 X135.117 Y100.047 E6.48963
G1 X135.732 Y100.732 E6.52025
G1 X136.285 Y101.468 E6.55087
G1 X136.772 Y102.249 E6.58148
G1 X137.189 Y103.07 E6.61211
G1 X137.534 Y103.924 E6.64274
G1 X137.803 Y104.804 E6.67335
G1 X137.995 Y105.705 E6.70399
G1 X138.108 Y106.618 E6.73458
G1 X138.146 Y107.482 E6.76335
G1 X138.149 Y126.945 E7.41069
G1 X138.14 Y127.672 E7.43487
G1 X138.089 Y128.591 E7.46549
G1 X137.958 Y129.503 E7.49613
G1 X137.748 Y130.399 E7.52674
G1 X137.462 Y131.274 E7.55736
G1 X137.101 Y132.121 E7.58798
G1 X136.667 Y132.933 E7.6186
G1 X136.165 Y133.705 E7.64923
G1 X135.597 Y134.43 E7.67986
G1 X134.969 Y135.103 E7.71048
G1 X134.285 Y135.719 E7.7411
G1 X133.55 Y136.273 E7.77171
G1 X132.77 Y136.762 E7.80233
G1 X131.95 Y137.181 E7.83296
G1 X131.097 Y137.527 E7.86357
G1 X130.217 Y137.798 E7.8942
G1 X129.317 Y137.991 E7.92481
G1 X128.403 Y138.106 E7.95545
G1 X127.838 Y138.137 E7.97427
G1 X127.22 Y138.15 E7.99483
G1 X108.02 Y138.149 E8.63342
G1 X107.322 Y138.14 E8.65664
G1 X106.403 Y138.088 E8.68726
G1 X105.492 Y137.957 E8.71787
G1 X104.596 Y137.747 E8.74848
G1 X103.721 Y137.46 E8.77911
G1 X102.874 Y137.098 E8.80974
G1 X102.062 Y136.664 E8.84036
G1 X101.291 Y136.162 E8.87097
G1 X100.566 Y135.594 E8.9016
G1 X99.893 Y134.965 E8.93224
G1 X99.278 Y134.281 E8.96283
G1 X98.724 Y133.546 E8.99344
G1 X98.236 Y132.765 E9.02407
G1 X97.817 Y131.945 E9.0547
G1 X97.471 Y131.092 E9.08532
G1 X97.201 Y130.212 E9.11593
G1 X97.008 Y129.311 E9.14658
G1 X96.894 Y128.398 E9.17718
G1 X96.863 Y127.827 E9.1962
G1 X96.85 Y127.208 E9.21679
G1 X96.851 Y107.981 E9.85629
G0 F6000 X97.251 Y107.986
G1 F1200 X97.26 Y107.321 E9.87841
G1 X97.312 Y106.419 E9.90846
G1 X97.444 Y105.526 E9.93848
G1 X97.654 Y104.648 E9.96851
G1 X97.941 Y103.791 E9.99857
G1 X98.303 Y102.964 E10.02859
G1 X98.736 Y102.172 E10.05861
G1 X99.238 Y101.421 E10.08866
G1 X99.805 Y100.717 E10.11872
G1 X100.431 Y100.067 E10.14874
G1 X101.112 Y99.474 E10.17877
G1 X101.844 Y98.944 E10.20883
G1 X102.619 Y98.481 E10.23886
G1 X103.432 Y98.088 E10.26889
G1 X104.277 Y97.768 E10.29894
G1 X105.146 Y97.525 E10.32896
G1 X106.034 Y97.359 E10.359
G1 X107.173 Y97.263 E10.39702
G1 X107.78 Y97.25 E10.41721
G1 X111.879 Y97.25 E10.55355
G1 X113.027 Y97.269 E10.59173
G1 X113.595 Y97.293 E10.61064
G1 X116.204 Y97.368 E10.69745
G1 X118.738 Y97.368 E10.78174
G1 X121.31 Y97.296 E10.86731
G1 X121.824 Y97.272 E10.88443
G1 X122.736 Y97.25 E10.91477
G1 X126.989 Y97.251 E11.05623
G1 X127.687 Y97.261 E11.07944
G1 X128.589 Y97.314 E11.1095
G1 X129.482 Y97.446 E11.13952
G1 X130.36 Y97.657 E11.16955
G1 X131.216 Y97.945 E11.19959
G1 X132.043 Y98.307 E11.22962
G1 X132.835 Y98.742 E11.25967
G1 X133.586 Y99.244 E11.28972
G1 X134.289 Y99.811 E11.31976
G1 X134.939 Y100.438 E11.3498
G1 X135.531 Y101.12 E11.37983
G1 X136.061 Y101.851 E11.40986
G1 X136.523 Y102.627 E11.4399
G1 X136.916 Y103.44 E11.46994
G1 X137.234 Y104.285 E11.49996
G1 X137.477 Y105.155 E11.53001
G1 X137.642 Y106.043 E11.56005
G1 X137.737 Y107.173 E11.59777
G1 X137.75 Y107.78 E11.61796
G1 X137.749 Y126.94 E12.25522
G1 X137.74 Y127.667 E12.27941
G1 X137.689 Y128.569 E12.30945
G1 X137.558 Y129.463 E12.33951
G1 X137.349 Y130.341 E12.36952
G1 X137.063 Y131.198 E12.39957
G1 X136.702 Y132.026 E12.42962
G1 X136.27 Y132.818 E12.45962
G1 X135.769 Y133.57 E12.48968
G1 X135.203 Y134.274 E12.51972
G1 X134.578 Y134.925 E12.54974
G1 X133.897 Y135.519 E12.57979
G1 X133.166 Y136.05 E12.60984
G1 X132.392 Y136.514 E12.63986
G1 X131.579 Y136.908 E12.66991
G1 X130.735 Y137.228 E12.69993
G1 X129.865 Y137.473 E12.72999
G1 X128.978 Y137.639 E12.76
G1 X127.827 Y137.737 E12.79842
G1 X127.22 Y137.75 E12.81862
G1 X108.025 Y137.749 E13.45705
G1 X107.327 Y137.74 E13.48026
G1 X106.426 Y137.689 E13.51028
G1 X105.532 Y137.557 E13.54034
G1 X104.654 Y137.348 E13.57035
G1 X103.797 Y137.061 E13.60041
G1 X102.97 Y136.7 E13.63043
G1 X102.177 Y136.267 E13.66048
G1 X101.426 Y135.766 E13.6905
G1 X100.722 Y135.2 E13.72055
G1 X100.071 Y134.574 E13.75059
G1 X99.478 Y133.893 E13.78062
G1 X98.948 Y133.162 E13.81065
G1 X98.484 Y132.387 E13.8407
G1 X98.09 Y131.574 E13.87074
G1 X97.77 Y130.73 E13.90077
G1 X97.526 Y129.86 E13.93082
G1 X97.36 Y128.972 E13.96087
G1 X97.263 Y127.817 E13.99942
G1 X97.25 Y127.208 E14.01968
G1 X97.251 Y107.986 E14.659
G1 F2700 E9.659
;MESH:End_Clip.STL
G0 F6000 X106.785 Y107.986
G0 X107.88 Y107.986
G0 X108.03 Y126.97
G1 F2700 E14.659
G0 F6000 X107.651 Y127.349
;TYPE:WALL-OUTER
G1 F1200 X127.35 Y127.35 E15.31419
G1 X127.35 Y110.025 E15.89043
G1 X127.35 Y107.65 E15.96942
G1 X122.6 Y107.65 E16.1274
G1 X122.599 Y124.27 E16.68019
G1 X122.562 Y124.387 E16.68427
G1 X122.434 Y124.468 E16.68931
G1 X122.4 Y124.47 E16.69044
G1 X112.591 Y124.473 E17.01669
G1 X112.427 Y124.39 E17.0228
G1 X112.39 Y124.274 E17.02685
G1 X112.386 Y107.65 E17.57977
G1 X107.65 Y107.65 E17.73729
G1 X107.651 Y127.349 E18.39248
G0 F6000 X108.051 Y126.949
;TYPE:WALL-INNER
G1 F1200 X126.95 Y126.95 E19.02106
G1 X126.95 Y110.025 E19.58399
G1 X126.95 Y108.05 E19.64968
G1 X123 Y108.05 E19.78106
G1 X122.999 Y124.27 E20.32054
G1 X122.98 Y124.422 E20.32563
G1 X122.888 Y124.619 E20.33286
G1 X122.689 Y124.796 E20.34172
G1 X122.4 Y124.87 E20.35164
G1 X112.591 Y124.873 E20.67789
G1 X112.3 Y124.799 E20.68788
G1 X112.102 Y124.623 E20.69669
G1 X111.998 Y124.377 E20.70557
G1 X111.99 Y124.274 E20.70901
G1 X111.986 Y108.05 E21.24862
G1 X108.05 Y108.05 E21.37953
G1 X108.051 Y126.949 E22.00812
G0 F6000 X108.411 Y126.589
;TYPE:SKIN
G1 F1200 X126.59 Y126.59 E22.61275
G1 X126.59 Y110.025 E23.16371
G1 X126.59 Y108.41 E23.21742
G1 X123.36 Y108.41 E23.32485
G1 X123.358 Y124.291 E23.85306
G1 X123.317 Y124.549 E23.86175
G1 X123.2 Y124.796 E23.87084
G1 X122.9 Y125.086 E23.88471
G1 X122.445 Y125.224 E23.90053
G1 X122.395 Y125.23 E23.9022
G1 X112.596 Y125.233 E24.22812
G1 X112.175 Y125.134 E24.2425
G1 X111.838 Y124.864 E24.25687
G1 X111.672 Y124.548 E24.26874
G1 X111.631 Y124.3 E24.2771
G1 X111.626 Y108.41 E24.8056
G1 X108.41 Y108.41 E24.91257
G1 X108.411 Y126.589 E25.5172
G0 F6000 X108.61 Y126.147
G1 F1200 X108.852 Y126.388 E25.52856
G0 F6000 X109.417 Y126.388
G1 F1200 X108.61 Y125.581 E25.56652
G0 F6000 X108.61 Y125.015
G1 F1200 X109.983 Y126.388 E25.6311
G0 F6000 X110.549 Y126.388
G1 F1200 X108.61 Y124.45 E25.72228
G0 F6000 X108.61 Y123.884
G1 F1200 X111.114 Y126.388 E25.84006
G0 F6000 X111.68 Y126.388
G1 F1200 X108.61 Y123.318 E25.98447
G0 F6000 X108.61 Y122.753
G1 F1200 X112.246 Y126.388 E26.15547
G0 F6000 X112.811 Y126.388
G1 F1200 X108.61 Y122.187 E26.35307
G0 F6000 X108.61 Y121.621
G1 F1200 X111.461 Y124.472 E26.48717
G0 F6000 X111.432 Y123.878
G1 F1200 X108.61 Y121.055 E26.61994
G0 F6000 X108.61 Y120.49
G1 F1200 X111.432 Y123.312 E26.75267
G0 F6000 X111.432 Y122.745
G1 F1200 X108.61 Y119.923 E26.88541
G0 F6000 X108.61 Y119.358
G1 F1200 X111.432 Y122.18 E27.01815
G0 F6000 X111.432 Y121.614
G1 F1200 X108.61 Y118.792 E27.15089
G0 F6000 X108.61 Y118.226
G1 F1200 X111.431 Y121.048 E27.2836
G0 F6000 X111.431 Y120.482
G1 F1200 X108.61 Y117.661 E27.41629
G0 F6000 X108.61 Y117.095
G1 F1200 X111.43 Y119.916 E27.54896
G0 F6000 X111.43 Y119.35
G1 F1200 X108.61 Y116.529 E27.68163
G0 F6000 X108.61 Y115.964
G1 F1200 X111.43 Y118.784 E27.81427
G0 F6000 X111.43 Y118.218
G1 F1200 X108.61 Y115.398 E27.94692
G0 F6000 X108.61 Y114.832
G1 F1200 X111.43 Y117.652 E28.07956
G0 F6000 X111.429 Y117.086
G1 F1200 X108.609 Y114.266 E28.21221
G0 F6000 X108.609 Y113.7
G1 F1200 X111.429 Y116.52 E28.34485
G0 F6000 X111.429 Y115.954
G1 F1200 X108.609 Y113.134 E28.4775
G0 F6000 X108.609 Y112.569
G1 F1200 X111.428 Y115.388 E28.61009
G0 F6000 X111.428 Y114.822
G1 F1200 X108.609 Y112.003 E28.74269
G0 F6000 X108.609 Y111.437
G1 F1200 X111.428 Y114.256 E28.87529
G0 F6000 X111.428 Y113.69
G1 F1200 X108.609 Y110.872 E29.00786
G0 F6000 X108.609 Y110.306
G1 F1200 X111.428 Y113.125 E29.14046
G0 F6000 X111.427 Y112.558
G1 F1200 X108.609 Y109.74 E29.27301
G0 F6000 X108.609 Y109.175
G1 F1200 X111.427 Y111.992 E29.40553
G0 F6000 X111.426 Y111.426
G1 F1200 X108.609 Y108.609 E29.53804
G0 F6000 X109.175 Y108.609
G1 F1200 X111.426 Y110.86 E29.64392
G0 F6000 X111.426 Y110.295
G1 F1200 X109.74 Y108.609 E29.72322
G0 F6000 X110.306 Y108.609
G1 F1200 X111.425 Y109.728 E29.77586
G0 F6000 X111.425 Y109.163
G1 F1200 X110.872 Y108.609 E29.80189
G1 F2700 E24.80189
G0 F6000 X110.872 Y108.15
G0 X112.034 Y108.215
G0 X112.052 Y124.811
G0 X122.937 Y124.808
G0 X123.1 Y108.85
G1 F2700 E29.80189
G0 F6000 X123.558 Y108.85
G1 F1200 X126.389 Y111.681 E29.93505
G0 F6000 X126.389 Y111.116
G1 F1200 X123.883 Y108.61 E30.05293
G0 F6000 X124.449 Y108.61
G1 F1200 X126.389 Y110.55 E30.14418
G0 F6000 X126.389 Y109.984
G1 F1200 X125.015 Y108.61 E30.20881
G0 F6000 X125.58 Y108.61
G1 F1200 X126.389 Y109.419 E30.24686
G0 F6000 X126.389 Y108.853
G1 F1200 X126.146 Y108.61 E30.25829
G0 F6000 X126.146 Y108.15
G0 X123.172 Y108.222
G0 X123.1 Y109.416
G0 X123.558 Y109.416
G1 F1200 X126.389 Y112.247 E30.39145
G0 F6000 X126.389 Y112.813
G1 F1200 X123.558 Y109.981 E30.52464
G0 F6000 X123.558 Y110.547
G1 F1200 X126.389 Y113.378 E30.6578
G0 F6000 X126.389 Y113.944
G1 F1200 X123.558 Y111.113 E30.79096
G0 F6000 X123.558 Y111.679
G1 F1200 X126.389 Y114.51 E30.92412
G0 F6000 X126.389 Y115.075
G1 F1200 X123.558 Y112.244 E31.05728
G0 F6000 X123.558 Y112.81
G1 F1200 X126.389 Y115.641 E31.19044
G0 F6000 X126.389 Y116.207
G1 F1200 X123.558 Y113.376 E31.32361
G0 F6000 X123.557 Y113.941
G1 F1200 X126.389 Y116.773 E31.45681
G0 F6000 X126.389 Y117.338
G1 F1200 X123.557 Y114.506 E31.59002
G0 F6000 X123.557 Y115.072
G1 F1200 X126.389 Y117.904 E31.72323
G0 F6000 X126.389 Y118.47
G1 F1200 X123.557 Y115.638 E31.85644
G0 F6000 X123.557 Y116.203
G1 F1200 X126.389 Y119.035 E31.98965
G0 F6000 X126.389 Y119.601
G1 F1200 X123.557 Y116.769 E32.12286
G0 F6000 X123.557 Y117.335
G1 F1200 X126.389 Y120.167 E32.25607
G0 F6000 X126.389 Y120.732
G1 F1200 X123.557 Y117.9 E32.38927
G0 F6000 X123.557 Y118.466
G1 F1200 X126.389 Y121.298 E32.52248
G0 F6000 X126.389 Y121.864
G1 F1200 X123.557 Y119.032 E32.65569
G0 F6000 X123.557 Y119.597
G1 F1200 X126.389 Y122.429 E32.7889
G0 F6000 X126.389 Y122.995
G1 F1200 X123.557 Y120.162 E32.92213
G0 F6000 X123.557 Y120.728
G1 F1200 X126.389 Y123.561 E33.05536
G0 F6000 X126.389 Y124.126
G1 F1200 X123.557 Y121.294 E33.18857
G0 F6000 X123.557 Y121.859
G1 F1200 X126.389 Y124.692 E33.32181
G0 F6000 X126.389 Y125.258
G1 F1200 X123.557 Y122.425 E33.45504
G0 F6000 X123.557 Y122.991
G1 F1200 X126.389 Y125.823 E33.58825
G0 F6000 X126.389 Y126.389
G1 F1200 X123.557 Y123.557 E33.72145
G0 F6000 X123.557 Y124.122
G1 F1200 X125.823 Y126.388 E33.82804
G0 F6000 X125.257 Y126.388
G1 F1200 X123.498 Y124.629 E33.91078
G0 F6000 X123.295 Y124.992
G1 F1200 X124.691 Y126.388 E33.97644
G0 F6000 X124.126 Y126.388
G1 F1200 X122.993 Y125.256 E34.02971
G0 F6000 X122.569 Y125.397
G1 F1200 X123.56 Y126.388 E34.07632
G0 F6000 X122.994 Y126.388
G1 F1200 X122.03 Y125.424 E34.12167
G0 F6000 X121.465 Y125.425
G1 F1200 X122.429 Y126.388 E34.16699
G0 F6000 X121.863 Y126.388
G1 F1200 X120.899 Y125.425 E34.21231
G0 F6000 X120.334 Y125.425
G1 F1200 X121.297 Y126.388 E34.25761
G0 F6000 X120.732 Y126.388
G1 F1200 X119.769 Y125.426 E34.30288
G0 F6000 X119.204 Y125.426
G1 F1200 X120.166 Y126.388 E34.34813
G0 F6000 X119.6 Y126.388
G1 F1200 X118.639 Y125.427 E34.39333
G0 F6000 X118.074 Y125.428
G1 F1200 X119.035 Y126.388 E34.43851
G0 F6000 X118.469 Y126.388
