;FLAVOR:Marlin
;TIME:2850
;Filament used: 0.867847m
;Layer height: 0.12
;MINX:96.45
;MINY:96.45
;MINZ:0.12
;MAXX:138.55
;MAXY:138.55
;MAXZ:16.08
;Generated with Cura_SteamEngine 5.0.0
M140 S60
M105
M190 S60
M104 S200
M105
M109 S200
M82 ;absolute extrusion mode
; Ender 3 Custom Start G-code
G92 E0 ; Reset Extruder
G28 ; Home all axes
G1 Z2.0 F3000 ; Move Z Axis up little to prevent scratching of Heat Bed
G1 X0.1 Y20 Z0.3 F5000.0 ; Move to start position
G1 X0.1 Y200.0 Z0.3 F1500.0 E15 ; Draw the first line
G1 X0.4 Y200.0 Z0.3 F5000.0 ; Move to side a little
G1 X0.4 Y20 Z0.3 F1500.0 E30 ; Draw the second line
G92 E0 ; Reset Extruder
G1 Z2.0 F3000 ; Move Z Axis up little to prevent scratching of Heat Bed
G1 X5 Y20 Z0.3 F5000.0 ; Move over to prevent blob squish
G92 E0
G92 E0
G1 F1200 E-5
;LAYER_COUNT:134
;LAYER:0
M107
G0 F6000 X99.648 Y99.714 Z0.12
G0 X96.451 Y107.975
;TYPE:SKIRT
G1 F1200 E0
G1 X96.46 Y107.31 E0.01327
G1 X96.513 Y106.374 E0.03198
G1 X96.645 Y105.445 E0.05071
G1 X96.856 Y104.531 E0.06943
G1 X97.144 Y103.639 E0.08813
G1 X97.507 Y102.774 E0.10685
G1 X97.942 Y101.943 E0.12557
G1 X98.446 Y101.153 E0.14427
G1 X99.016 Y100.408 E0.16299
G1 X99.648 Y99.714 E0.18172
G1 X100.336 Y99.077 E0.20043
G1 X101.076 Y98.501 E0.21915
G1 X101.862 Y97.989 E0.23787
G1 X102.689 Y97.547 E0.25658
G1 X103.551 Y97.177 E0.2753
G1 X104.441 Y96.881 E0.29402
G1 X105.353 Y96.663 E0.31273
G1 X106.28 Y96.522 E0.33144
G1 X107.151 Y96.463 E0.34886
G1 X107.78 Y96.45 E0.36142
G1 X111.878 Y96.45 E0.4432
G1 X113.029 Y96.47 E0.46617
G1 X113.571 Y96.493 E0.477
G1 X116.227 Y96.568 E0.53002
G1 X118.715 Y96.568 E0.57967
G1 X121.534 Y96.483 E0.63595
G1 X122.743 Y96.45 E0.66009
G1 X127.001 Y96.451 E0.74506
G1 X127.699 Y96.461 E0.75899
G1 X128.635 Y96.515 E0.7777
G1 X129.563 Y96.647 E0.79641
G1 X130.477 Y96.859 E0.81513
G1 X131.369 Y97.148 E0.83385
G1 X132.234 Y97.511 E0.85257
G1 X133.064 Y97.947 E0.87128
G1 X133.855 Y98.452 E0.89
G1 X134.599 Y99.023 E0.90872
G1 X135.292 Y99.655 E0.92744
G1 X135.929 Y100.343 E0.94615
G1 X136.504 Y101.084 E0.96486
G1 X137.015 Y101.87 E0.98357
G1 X137.457 Y102.698 E1.0023
G1 X137.826 Y103.56 E1.02102
G1 X138.121 Y104.45 E1.03973
G1 X138.339 Y105.362 E1.05844
G1 X138.479 Y106.29 E1.07717
G1 X138.537 Y107.151 E1.09439
G1 X138.55 Y107.78 E1.10694
G1 X138.549 Y126.95 E1.4895
G1 X138.54 Y127.677 E1.50401
G1 X138.489 Y128.614 E1.52274
G1 X138.357 Y129.542 E1.54144
G1 X138.148 Y130.456 E1.56015
G1 X137.861 Y131.349 E1.57887
G1 X137.499 Y132.215 E1.5976
G1 X137.065 Y133.046 E1.61631
G1 X136.561 Y133.837 E1.63503
G1 X135.992 Y134.582 E1.65374
G1 X135.361 Y135.277 E1.67247
G1 X134.674 Y135.915 E1.69118
G1 X133.935 Y136.492 E1.70989
G1 X133.149 Y137.004 E1.72861
G1 X132.323 Y137.447 E1.74732
G1 X131.461 Y137.819 E1.76605
G1 X130.572 Y138.115 E1.78475
G1 X129.66 Y138.335 E1.80347
G1 X128.733 Y138.476 E1.82218
G1 X127.849 Y138.537 E1.83987
G1 X127.22 Y138.55 E1.85242
G1 X108.015 Y138.549 E2.23568
G1 X107.317 Y138.54 E2.24961
G1 X106.381 Y138.488 E2.26832
G1 X105.452 Y138.356 E2.28704
G1 X104.538 Y138.146 E2.30576
G1 X103.645 Y137.859 E2.32448
G1 X102.78 Y137.496 E2.3432
G1 X101.949 Y137.062 E2.36191
G1 X101.158 Y136.558 E2.38062
G1 X100.413 Y135.988 E2.39934
G1 X99.719 Y135.357 E2.41806
G1 X99.082 Y134.67 E2.43676
G1 X98.505 Y133.93 E2.45548
G1 X97.993 Y133.144 E2.4742
G1 X97.55 Y132.317 E2.49293
G1 X97.179 Y131.456 E2.51164
G1 X96.883 Y130.566 E2.53035
G1 X96.664 Y129.654 E2.54907
G1 X96.523 Y128.727 E2.56778
G1 X96.463 Y127.838 E2.58556
G1 X96.45 Y127.208 E2.59814
G1 X96.451 Y107.975 E2.98195
G0 F6000 X96.851 Y107.981
G1 F1200 X96.86 Y107.316 E2.99523
G1 X96.912 Y106.396 E3.01361
G1 X97.044 Y105.485 E3.03198
G1 X97.255 Y104.589 E3.05035
G1 X97.542 Y103.714 E3.06873
G1 X97.905 Y102.868 E3.0871
G1 X98.339 Y102.056 E3.10548
G1 X98.842 Y101.285 E3.12385
G1 X99.411 Y100.561 E3.14222
G1 X100.039 Y99.889 E3.16058
G1 X100.724 Y99.273 E3.17896
G1 X101.46 Y98.72 E3.19733
G1 X102.241 Y98.232 E3.21571
G1 X103.061 Y97.814 E3.23408
G1 X103.915 Y97.469 E3.25246
G1 X104.795 Y97.199 E3.27083
G1 X105.695 Y97.007 E3.28919
G1 X106.609 Y96.893 E3.30758
G1 X107.162 Y96.863 E3.31863
G1 X107.78 Y96.85 E3.33096
G1 X111.878 Y96.85 E3.41274
G1 X113.013 Y96.869 E3.4354
G1 X113.616 Y96.894 E3.44744
G1 X116.216 Y96.968 E3.49935
G1 X118.726 Y96.968 E3.54944
G1 X121.285 Y96.896 E3.60052
G1 X121.781 Y96.873 E3.61043
G1 X122.743 Y96.85 E3.62964
G1 X126.995 Y96.851 E3.71449
G1 X127.693 Y96.861 E3.72842
G1 X128.612 Y96.914 E3.74679
G1 X129.523 Y97.047 E3.76516
G1 X130.419 Y97.258 E3.78353
G1 X131.293 Y97.546 E3.8019
G1 X132.14 Y97.909 E3.82029
G1 X132.951 Y98.344 E3.83865
G1 X133.721 Y98.848 E3.85702
G1 X134.445 Y99.417 E3.87539
G1 X135.117 Y100.047 E3.89378
G1 X135.732 Y100.732 E3.91215
G1 X136.285 Y101.468 E3.93052
G1 X136.772 Y102.249 E3.94889
G1 X137.189 Y103.07 E3.96726
G1 X137.534 Y103.924 E3.98564
G1 X137.803 Y104.804 E4.00401
G1 X137.995 Y105.705 E4.02239
G1 X138.108 Y106.618 E4.04075
G1 X138.146 Y107.482 E4.05801
G1 X138.149 Y126.945 E4.44641
G1 X138.14 Y127.672 E4.46092
G1 X138.089 Y128.591 E4.47929
G1 X137.958 Y129.503 E4.49768
G1 X137.748 Y130.399 E4.51604
G1 X137.462 Y131.274 E4.53441
G1 X137.101 Y132.121 E4.55279
G1 X136.667 Y132.933 E4.57116
G1 X136.165 Y133.705 E4.58954
G1 X135.597 Y134.43 E4.60792
G1 X134.969 Y135.103 E4.62629
G1 X134.285 Y135.719 E4.64466
G1 X133.55 Y136.273 E4.66302
G1 X132.77 Y136.762 E4.6814
G1 X131.95 Y137.181 E4.69977
G1 X131.097 Y137.527 E4.71814
G1 X130.217 Y137.798 E4.73652
G1 X129.317 Y137.991 E4.75489
G1 X128.403 Y138.106 E4.77327
G1 X127.838 Y138.137 E4.78456
G1 X127.22 Y138.15 E4.7969
G1 X108.02 Y138.149 E5.18005
G1 X107.322 Y138.14 E5.19398
G1 X106.403 Y138.088 E5.21235
G1 X105.492 Y137.957 E5.23072
G1 X104.596 Y137.747 E5.24909
G1 X103.721 Y137.46 E5.26746
G1 X102.874 Y137.098 E5.28584
G1 X102.062 Y136.664 E5.30422
G1 X101.291 Y136.162 E5.32258
G1 X100.566 Y135.594 E5.34096
G1 X99.893 Y134.965 E5.35934
G1 X99.278 Y134.281 E5.3777
G1 X98.724 Y133.546 E5.39606
G1 X98.236 Y132.765 E5.41444
G1 X97.817 Y131.945 E5.43282
G1 X97.471 Y131.092 E5.45119
G1 X97.201 Y130.212 E5.46956
G1 X97.008 Y129.311 E5.48795
G1 X96.894 Y128.398 E5.50631
G1 X96.863 Y127.827 E5.51772
G1 X96.85 Y127.208 E5.53008
G1 X96.851 Y107.981 E5.91377
G0 F6000 X97.251 Y107.986
G1 F1200 X97.26 Y107.321 E5.92704
G1 X97.312 Y106.419 E5.94507
G1 X97.444 Y105.526 E5.96309
G1 X97.654 Y104.648 E5.9811
G1 X97.941 Y103.791 E5.99914
G1 X98.303 Y102.964 E6.01715
G1 X98.736 Y102.172 E6.03517
G1 X99.238 Y101.421 E6.05319
G1 X99.805 Y100.717 E6.07123
G1 X100.431 Y100.067 E6.08924
G1 X101.112 Y99.474 E6.10726
G1 X101.844 Y98.944 E6.1253
G1 X102.619 Y98.481 E6.14331
G1 X103.432 Y98.088 E6.16133
G1 X104.277 Y97.768 E6.17937
G1 X105.146 Y97.525 E6.19737
G1 X106.034 Y97.359 E6.2154
G1 X107.173 Y97.263 E6.23821
G1 X107.78 Y97.25 E6.25033
G1 X111.878 Y97.25 E6.33211
G1 X112.996 Y97.269 E6.35442
G1 X113.587 Y97.294 E6.36623
G1 X116.205 Y97.368 E6.41849
G1 X118.737 Y97.368 E6.46902
G1 X121.318 Y97.295 E6.52055
G1 X121.792 Y97.273 E6.53002
G1 X122.743 Y97.25 E6.549
G1 X126.989 Y97.251 E6.63373
G1 X127.687 Y97.261 E6.64767
G1 X128.589 Y97.314 E6.6657
G1 X129.482 Y97.446 E6.68371
G1 X130.36 Y97.657 E6.70173
G1 X131.216 Y97.945 E6.71975
G1 X132.043 Y98.307 E6.73777
G1 X132.835 Y98.742 E6.7558
G1 X133.586 Y99.244 E6.77383
G1 X134.289 Y99.811 E6.79185
G1 X134.939 Y100.438 E6.80988
G1 X135.531 Y101.12 E6.8279
G1 X136.061 Y101.851 E6.84592
G1 X136.523 Y102.627 E6.86394
G1 X136.916 Y103.44 E6.88196
G1 X137.234 Y104.285 E6.89998
G1 X137.477 Y105.155 E6.918
G1 X137.642 Y106.043 E6.93603
G1 X137.737 Y107.173 E6.95866
G1 X137.75 Y107.78 E6.97077
G1 X137.749 Y126.94 E7.35313
G1 X137.74 Y127.667 E7.36764
G1 X137.689 Y128.569 E7.38567
G1 X137.558 Y129.463 E7.4037
G1 X137.349 Y130.341 E7.42171
G1 X137.063 Y131.198 E7.43974
G1 X136.702 Y132.026 E7.45777
G1 X136.27 Y132.818 E7.47577
G1 X135.769 Y133.57 E7.4938
G1 X135.203 Y134.274 E7.51183
G1 X134.578 Y134.925 E7.52984
G1 X133.897 Y135.519 E7.54787
G1 X133.166 Y136.05 E7.5659
G1 X132.392 Y136.514 E7.58391
G1 X131.579 Y136.908 E7.60194
G1 X130.735 Y137.228 E7.61996
G1 X129.865 Y137.473 E7.63799
G1 X128.978 Y137.639 E7.656
G1 X127.827 Y137.737 E7.67905
G1 X127.22 Y137.75 E7.69117
G1 X108.025 Y137.749 E8.07423
G1 X107.327 Y137.74 E8.08816
G1 X106.426 Y137.689 E8.10617
G1 X105.532 Y137.557 E8.1242
G1 X104.654 Y137.348 E8.14221
G1 X103.797 Y137.061 E8.16025
G1 X102.97 Y136.7 E8.17825
G1 X102.177 Y136.267 E8.19629
G1 X101.426 Y135.766 E8.2143
G1 X100.722 Y135.2 E8.23233
G1 X100.071 Y134.574 E8.25035
G1 X99.478 Y133.893 E8.26837
G1 X98.948 Y133.162 E8.28639
G1 X98.484 Y132.387 E8.30442
G1 X98.09 Y131.574 E8.32245
G1 X97.77 Y130.73 E8.34046
G1 X97.526 Y129.86 E8.35849
G1 X97.36 Y128.972 E8.37652
G1 X97.263 Y127.817 E8.39965
G1 X97.25 Y127.208 E8.4118
G1 X97.251 Y107.986 E8.7954
G1 F1200 E3.7954
;MESH:End_Clip.STL
G0 F6000 X106.785 Y107.986
G0 X107.88 Y107.986
G0 X108.03 Y126.97
G1 F1200 E8.7954
G0 F6000 X107.651 Y127.349
;TYPE:WALL-OUTER
G1 F1200 X127.35 Y127.35 E9.18851
G1 X127.35 Y110.025 E9.53425
G1 X127.35 Y107.65 E9.58165
G1 X122.601 Y107.65 E9.67642
G1 X122.599 Y124.269 E10.00807
G1 X122.562 Y124.386 E10.01052
G1 X122.434 Y124.467 E10.01354
G1 X122.4 Y124.469 E10.01422
G1 X112.591 Y124.473 E10.20997
G1 X112.427 Y124.39 E10.21364
G1 X112.39 Y124.274 E10.21607
G1 X112.385 Y107.65 E10.54782
G1 X107.65 Y107.65 E10.64231
G1 X107.651 Y127.349 E11.03543
G0 F6000 X108.051 Y126.949
;TYPE:WALL-INNER
G1 F1200 X126.95 Y126.95 E11.41258
G1 X126.95 Y110.025 E11.75033
G1 X126.95 Y108.05 E11.78975
G1 X123.001 Y108.05 E11.86855
G1 X122.999 Y124.269 E12.19222
G1 X122.98 Y124.421 E12.19528
G1 X122.888 Y124.619 E12.19963
G1 X122.689 Y124.795 E12.20494
G1 X122.4 Y124.869 E12.21089
G1 X112.591 Y124.873 E12.40664
G1 X112.3 Y124.799 E12.41263
G1 X112.102 Y124.623 E12.41792
G1 X111.998 Y124.377 E12.42325
G1 X111.99 Y124.274 E12.42531
G1 X111.985 Y108.05 E12.74908
G1 X108.05 Y108.05 E12.8276
G1 X108.051 Y126.949 E13.20475
G0 F6000 X108.411 Y126.589
;TYPE:SKIN
G1 F1200 X126.59 Y126.59 E13.56754
G1 X126.59 Y110.025 E13.89811
G1 X126.59 Y108.41 E13.93034
G1 X123.361 Y108.41 E13.99478
G1 X123.358 Y124.29 E14.31168
G1 X123.318 Y124.545 E14.31683
G1 X123.2 Y124.796 E14.32236
G1 X122.899 Y125.086 E14.3307
G1 X122.444 Y125.224 E14.34019
G1 X122.395 Y125.229 E14.34118
G1 X112.596 Y125.233 E14.53673
G1 X112.175 Y125.134 E14.54536
G1 X111.838 Y124.864 E14.55397
G1 X111.672 Y124.549 E14.56108
G1 X111.631 Y124.3 E14.56612
G1 X111.625 Y108.41 E14.88322
G1 X108.41 Y108.41 E14.94738
G1 X108.411 Y126.589 E15.31016
G0 F6000 X108.61 Y126.147
G1 F1200 X108.852 Y126.388 E15.31697
G0 F6000 X109.417 Y126.388
G1 F1200 X108.61 Y125.581 E15.33975
G0 F6000 X108.61 Y125.015
G1 F1200 X109.983 Y126.388 E15.3785
G0 F6000 X110.549 Y126.388
G1 F1200 X108.61 Y124.45 E15.43321
G0 F6000 X108.61 Y123.884
G1 F1200 X111.114 Y126.388 E15.50387
G0 F6000 X111.68 Y126.388
G1 F1200 X108.61 Y123.318 E15.59052
G0 F6000 X108.61 Y122.753
G1 F1200 X112.246 Y126.388 E15.69312
G0 F6000 X112.811 Y126.388
G1 F1200 X108.61 Y122.187 E15.81168
G0 F6000 X108.61 Y121.621
G1 F1200 X111.46 Y124.471 E15.89211
G0 F6000 X111.432 Y123.878
G1 F1200 X108.61 Y121.055 E15.97177
G0 F6000 X108.61 Y120.49
G1 F1200 X111.432 Y123.312 E16.05141
G0 F6000 X111.432 Y122.745
G1 F1200 X108.61 Y119.923 E16.13106
G0 F6000 X108.61 Y119.358
G1 F1200 X111.432 Y122.18 E16.2107
G0 F6000 X111.431 Y121.613
G1 F1200 X108.61 Y118.792 E16.29031
G0 F6000 X108.61 Y118.226
G1 F1200 X111.431 Y121.048 E16.36994
G0 F6000 X111.431 Y120.482
G1 F1200 X108.61 Y117.661 E16.44956
G0 F6000 X108.61 Y117.095
G1 F1200 X111.43 Y119.916 E16.52916
G0 F6000 X111.43 Y119.35
G1 F1200 X108.61 Y116.529 E16.60876
G0 F6000 X108.61 Y115.964
G1 F1200 X111.43 Y118.784 E16.68834
G0 F6000 X111.43 Y118.218
G1 F1200 X108.61 Y115.398 E16.76793
G0 F6000 X108.61 Y114.832
G1 F1200 X111.429 Y117.651 E16.84749
G0 F6000 X111.429 Y117.086
G1 F1200 X108.609 Y114.266 E16.92708
G0 F6000 X108.609 Y113.7
G1 F1200 X111.429 Y116.52 E17.00666
G0 F6000 X111.428 Y115.954
G1 F1200 X108.609 Y113.134 E17.08624
G0 F6000 X108.609 Y112.569
G1 F1200 X111.428 Y115.388 E17.16579
G0 F6000 X111.428 Y114.822
G1 F1200 X108.609 Y112.003 E17.24535
G0 F6000 X108.609 Y111.437
G1 F1200 X111.428 Y114.256 E17.32491
G0 F6000 X111.427 Y113.69
G1 F1200 X108.609 Y110.872 E17.40444
G0 F6000 X108.609 Y110.306
G1 F1200 X111.427 Y113.124 E17.48397
G0 F6000 X111.427 Y112.558
G1 F1200 X108.609 Y109.74 E17.5635
G0 F6000 X108.609 Y109.175
G1 F1200 X111.426 Y111.992 E17.643
G0 F6000 X111.426 Y111.426
G1 F1200 X108.609 Y108.609 E17.7225
G0 F6000 X109.175 Y108.61
G1 F1200 X111.425 Y110.86 E17.786
G0 F6000 X111.425 Y110.294
G1 F1200 X109.741 Y108.61 E17.83353
G0 F6000 X110.307 Y108.61
G1 F1200 X111.425 Y109.728 E17.86508
G0 F6000 X111.425 Y109.162
G1 F1200 X110.872 Y108.61 E17.88067
G1 F1200 E12.88067
G0 F6000 X110.872 Y108.15
G0 X112.033 Y108.215
G0 X112.052 Y124.811
G0 X122.937 Y124.807
G0 X123.101 Y108.851
G1 F1200 E17.88067
G0 F6000 X123.559 Y108.851
G1 F1200 X126.389 Y111.681 E17.96054
G0 F6000 X126.389 Y111.116
G1 F1200 X123.883 Y108.61 E18.03127
G0 F6000 X124.449 Y108.61
G1 F1200 X126.389 Y110.55 E18.08602
G0 F6000 X126.389 Y109.984
G1 F1200 X125.015 Y108.61 E18.1248
G0 F6000 X125.58 Y108.61
G1 F1200 X126.389 Y109.419 E18.14763
G0 F6000 X126.389 Y108.853
G1 F1200 X126.146 Y108.61 E18.15449
G0 F6000 X126.146 Y108.15
G0 X123.173 Y108.222
G0 X123.101 Y109.416
G0 X123.559 Y109.416
G1 F1200 X126.389 Y112.247 E18.23437
G0 F6000 X126.389 Y112.813
G1 F1200 X123.559 Y109.982 E18.31425
G0 F6000 X123.559 Y110.548
G1 F1200 X126.389 Y113.378 E18.39412
G0 F6000 X126.389 Y113.944
G1 F1200 X123.559 Y111.114 E18.47399
G0 F6000 X123.559 Y111.679
G1 F1200 X126.389 Y114.51 E18.55387
G0 F6000 X126.389 Y115.075
G1 F1200 X123.559 Y112.245 E18.63374
G0 F6000 X123.558 Y112.81
G1 F1200 X126.389 Y115.641 E18.71364
G0 F6000 X126.389 Y116.207
G1 F1200 X123.558 Y113.376 E18.79353
G0 F6000 X123.558 Y113.941
G1 F1200 X126.389 Y116.773 E18.87345
G0 F6000 X126.389 Y117.338
G1 F1200 X123.558 Y114.507 E18.95334
G0 F6000 X123.558 Y115.073
G1 F1200 X126.389 Y117.904 E19.03324
G0 F6000 X126.389 Y118.47
G1 F1200 X123.558 Y115.638 E19.11315
G0 F6000 X123.558 Y116.204
G1 F1200 X126.389 Y119.035 E19.19305
G0 F6000 X126.389 Y119.601
G1 F1200 X123.557 Y116.769 E19.27297
G0 F6000 X123.557 Y117.335
G1 F1200 X126.389 Y120.167 E19.3529
G0 F6000 X126.389 Y120.732
G1 F1200 X123.557 Y117.9 E19.43282
G0 F6000 X123.557 Y118.466
G1 F1200 X126.389 Y121.298 E19.51275
G0 F6000 X126.389 Y121.864
G1 F1200 X123.557 Y119.032 E19.59267
G0 F6000 X123.557 Y119.597
G1 F1200 X126.389 Y122.429 E19.6726
G0 F6000 X126.389 Y122.995
G1 F1200 X123.557 Y120.163 E19.75252
G0 F6000 X123.557 Y120.728
G1 F1200 X126.389 Y123.561 E19.83246
G0 F6000 X126.389 Y124.126
G1 F1200 X123.557 Y121.294 E19.91239
G0 F6000 X123.557 Y121.859
G1 F1200 X126.389 Y124.692 E19.99233
G0 F6000 X126.389 Y125.258
G1 F1200 X123.557 Y122.425 E20.07227
G0 F6000 X123.557 Y122.991
G1 F1200 X126.389 Y125.823 E20.15219
G0 F6000 X126.389 Y126.389
G1 F1200 X123.557 Y123.557 E20.23212
G0 F6000 X123.557 Y124.122
G1 F1200 X125.823 Y126.388 E20.29607
G0 F6000 X125.257 Y126.388
G1 F1200 X123.498 Y124.629 E20.34571
G0 F6000 X123.293 Y124.991
G1 F1200 X124.691 Y126.388 E20.38515
G0 F6000 X124.126 Y126.388
G1 F1200 X122.992 Y125.255 E20.41714
G0 F6000 X122.569 Y125.397
G1 F1200 X123.56 Y126.388 E20.44511
G0 F6000 X122.994 Y126.388
G1 F1200 X122.03 Y125.424 E20.47232
G0 F6000 X121.465 Y125.425
G1 F1200 X122.429 Y126.388 E20.49951
G0 F6000 X121.863 Y126.388
G1 F1200 X120.899 Y125.425 E20.5267
G0 F6000 X120.334 Y125.425
G1 F1200 X121.297 Y126.388 E20.55388
G0 F6000 X120.732 Y126.388
G1 F1200 X119.769 Y125.426 E20.58104
G0 F6000 X119.204 Y125.426
G1 F1200 X120.166 Y126.388 E20.60819
G0 F6000 X119.6 Y126.388
G1 F1200 X118.639 Y125.427 E20.63531
G0 F6000 X118.074 Y125.428
G1 F1200 X119.035 Y126.388 E20.66242
G0 F6000 X118.469 Y126.388
G1 F1200 X117.509 Y125.428 E20.68951
G0 F6000 X116.943 Y125.428
G1 F1200 X117.903 Y126.388 E20.71661
